(G-CODE GENERATED BY FLATCAM v8.994 - www.flatcam.org - Version Date: 2020/11/7)

(Name: Home and Jig Probe.nc)
(Type: G-code from Geometry)
(Units: MM)

(Created on Friday, 31 October 2025 at 16:13)


  (########## ACTION ##########)
 (Remove clamps)
 M0
 
  (########## ACTION ##########)
 (Disconnect probe)
 M0
 
 (Home)
				$H
 G90 G21
 G92 X0 Y0 Z0
  (########## ACTION ##########)
 (Insert 3.175mm probe bit)
 M0
 
  (########## ACTION ##########)
 (Connect probe to alignment jig)
 M0
 
 (Probe Z)
				G0 X21 Y0 Z-25
 G91
 G38.2 Z-15 F10
 G92 Z0
 (Probe X)
				G90
 G0 Z1
 G0 X31 Y5
 G0 Z-1
 G91
 G38.2 X-10 F10
 G92 X1.5875
 (Probe Y)
				G90
 G0 X5 Y5
 G91
 G38.2 Y-10 F10
 G92 Y1.5875
 (Move away from jig)
				G90
 G0 X6.35 Y6.35 Z1
 

