(G-CODE GENERATED BY FLATCAM v8.994 - www.flatcam.org - Version Date: 2020/11/7)

(Name: F_Cu_Isolate.nc)
(Type: G-code from Geometry)
(Units: MM)

(Created on Friday, 31 October 2025 at 16:13)

(This preprocessor is used with a motion controller loaded with GRBL firmware.)
(It is configured to be compatible with almost any version of GRBL firmware.)

(TOOL DIAMETER: 0.3 mm)
(Feedrate_XY: 11.339999999999998 mm/min)
(Feedrate_Z: 15.4 mm/min)
(Feedrate rapids 1500.0 mm/min)

(Z_Cut: -0.15 mm)
(Z_Move: 1.0 mm)
(Z Start: None mm)
(Z End: 1.0 mm)
(X,Y End: 20.0000, 35.0000 mm)
(Steps per circle: 64)
(Steps per circle: 64)
(Preprocessor Geometry: GRBL_11_no_M6)

(X range:   20.6751 ...   36.3901  mm)
(Y range:   35.4201 ...   42.5001  mm)

(Spindle Speed: 10000 RPM)
G21
G90
G17
G94


G01 F11.34
G00 Z1.0000

M03 S10000
G4 P3.0
G00 X22.1302 Y38.2055
G01 F15.40
G01 Z-0.1500
G01 F11.34
G01 X22.1794 Y38.1274 F11.34
G01 X22.1883 Y38.1154 F11.34
G01 X22.1957 Y38.1070 F11.34
G01 X22.6067 Y37.6959 F11.34
G01 X22.6182 Y37.6810 F11.34
G01 X22.6422 Y37.6547 F11.34
G01 X22.6685 Y37.6307 F11.34
G01 X22.6834 Y37.6192 F11.34
G01 X22.9595 Y37.3433 F11.34
G01 X22.9706 Y37.3341 F11.34
G01 X23.0279 Y37.2934 F11.34
G01 X23.0340 Y37.2893 F11.34
G01 X23.0436 Y37.2837 F11.34
G01 X23.0501 Y37.2804 F11.34
G01 X23.0603 Y37.2760 F11.34
G01 X23.0707 Y37.2724 F11.34
G01 X23.0778 Y37.2704 F11.34
G01 X23.1714 Y37.2490 F11.34
G01 X23.1824 Y37.2472 F11.34
G01 X23.1936 Y37.2463 F11.34
G01 X23.9442 Y37.2461 F11.34
G01 X23.9688 Y37.2444 F11.34
G01 X24.1212 Y37.2064 F11.34
G01 X24.2590 Y37.1380 F11.34
G01 X24.3790 Y37.0415 F11.34
G01 X24.4036 Y37.0110 F11.34
G01 X24.4111 Y37.0028 F11.34
G01 X24.4164 Y36.9977 F11.34
G01 X24.4248 Y36.9904 F11.34
G01 X24.4936 Y36.9358 F11.34
G01 X24.5057 Y36.9272 F11.34
G01 X24.5153 Y36.9215 F11.34
G01 X24.5253 Y36.9165 F11.34
G01 X24.5356 Y36.9123 F11.34
G01 X24.5463 Y36.9089 F11.34
G01 X24.6472 Y36.8859 F11.34
G01 X24.6620 Y36.8840 F11.34
G01 X24.6732 Y36.8836 F11.34
G01 X30.1826 Y36.8836 F11.34
G01 X30.1927 Y36.8839 F11.34
G01 X30.2508 Y36.8905 F11.34
G01 X30.2649 Y36.8935 F11.34
G01 X30.2753 Y36.8966 F11.34
G01 X30.2820 Y36.8991 F11.34
G01 X30.2919 Y36.9034 F11.34
G01 X30.3717 Y36.9418 F11.34
G01 X30.3849 Y36.9490 F11.34
G01 X30.3942 Y36.9552 F11.34
G01 X30.4031 Y36.9621 F11.34
G01 X30.4114 Y36.9696 F11.34
G01 X30.4191 Y36.9777 F11.34
G01 X30.4791 Y37.0527 F11.34
G01 X30.4858 Y37.0617 F11.34
G01 X30.4918 Y37.0712 F11.34
G01 X30.4970 Y37.0811 F11.34
G01 X30.5015 Y37.0914 F11.34
G01 X30.5063 Y37.1056 F11.34
G01 X30.5278 Y37.1992 F11.34
G01 X30.5304 Y37.2139 F11.34
G01 X30.5314 Y37.2251 F11.34
G01 X30.5316 Y37.2326 F11.34
G01 X30.5316 Y37.4401 F11.34
G01 X30.5434 Y37.5298 F11.34
G01 X30.5896 Y37.6413 F11.34
G01 X30.6631 Y37.7371 F11.34
G01 X30.7588 Y37.8106 F11.34
G01 X30.8704 Y37.8568 F11.34
G01 X30.9600 Y37.8686 F11.34
G01 X31.9902 Y37.8686 F11.34
G01 X33.0201 Y37.8686 F11.34
G01 X33.1098 Y37.8568 F11.34
G01 X33.2213 Y37.8106 F11.34
G01 X33.3171 Y37.7371 F11.34
G01 X33.3906 Y37.6413 F11.34
G01 X33.4247 Y37.5590 F11.34
G01 X33.4323 Y37.5432 F11.34
G01 X33.4623 Y37.4923 F11.34
G01 X33.4703 Y37.4801 F11.34
G01 X33.4771 Y37.4715 F11.34
G01 X33.4845 Y37.4634 F11.34
G01 X33.4924 Y37.4559 F11.34
G01 X33.4980 Y37.4512 F11.34
G01 X33.5702 Y37.3937 F11.34
G01 X33.5825 Y37.3853 F11.34
G01 X33.5923 Y37.3798 F11.34
G01 X33.5991 Y37.3766 F11.34
G01 X33.6130 Y37.3711 F11.34
G01 X33.6274 Y37.3670 F11.34
G01 X33.7174 Y37.3465 F11.34
G01 X33.7284 Y37.3447 F11.34
G01 X33.7434 Y37.3436 F11.34
G01 X33.8512 Y37.3436 F11.34
G01 X33.8884 Y37.3462 F11.34
G01 X33.9032 Y37.3481 F11.34
G01 X33.9142 Y37.3504 F11.34
G01 X33.9285 Y37.3548 F11.34
G01 X34.0144 Y37.3885 F11.34
G01 X34.0213 Y37.3914 F11.34
G01 X34.0313 Y37.3964 F11.34
G01 X34.0410 Y37.4022 F11.34
G01 X34.0472 Y37.4064 F11.34
G01 X34.0589 Y37.4157 F11.34
G01 X34.0670 Y37.4234 F11.34
G01 X34.0973 Y37.4560 F11.34
G01 X34.1102 Y37.4666 F11.34
G01 X34.1205 Y37.4771 F11.34
G01 X34.1276 Y37.4856 F11.34
G01 X34.2131 Y37.5971 F11.34
G01 X34.3088 Y37.6706 F11.34
G01 X34.4204 Y37.7168 F11.34
G01 X34.5100 Y37.7286 F11.34
G01 X35.8564 Y37.7286 F11.34
G01 X35.8699 Y37.7295 F11.34
G01 X35.9177 Y37.7350 F11.34
G01 X35.9319 Y37.7376 F11.34
G01 X35.9458 Y37.7416 F11.34
G01 X35.9525 Y37.7441 F11.34
G01 X35.9624 Y37.7484 F11.34
G01 X36.0456 Y37.7885 F11.34
G01 X36.0521 Y37.7921 F11.34
G01 X36.0616 Y37.7981 F11.34
G01 X36.0707 Y37.8047 F11.34
G01 X36.0764 Y37.8095 F11.34
G01 X36.0845 Y37.8173 F11.34
G01 X36.0921 Y37.8256 F11.34
G01 X36.1542 Y37.9037 F11.34
G01 X36.1604 Y37.9130 F11.34
G01 X36.1658 Y37.9228 F11.34
G01 X36.1706 Y37.9330 F11.34
G01 X36.1746 Y37.9435 F11.34
G01 X36.1786 Y37.9579 F11.34
G01 X36.1983 Y38.0442 F11.34
G01 X36.2004 Y38.0552 F11.34
G01 X36.2017 Y38.0664 F11.34
G01 X36.2021 Y38.0776 F11.34
G01 X36.2021 Y38.3779 F11.34
G01 X36.2173 Y38.3985 F11.34
G01 X36.2236 Y38.4076 F11.34
G01 X36.2684 Y38.4823 F11.34
G01 X36.2737 Y38.4919 F11.34
G01 X36.3140 Y38.5774 F11.34
G01 X36.3447 Y38.6628 F11.34
G01 X36.3480 Y38.6733 F11.34
G01 X36.3709 Y38.7650 F11.34
G01 X36.3853 Y38.8621 F11.34
G01 X36.3901 Y38.9601 F11.34
G01 X36.3858 Y39.0507 F11.34
G01 X36.3844 Y39.0654 F11.34
G01 X36.3721 Y39.1479 F11.34
G01 X36.3692 Y39.1623 F11.34
G01 X36.3470 Y39.2504 F11.34
G01 X36.3153 Y39.3393 F11.34
G01 X36.3110 Y39.3495 F11.34
G01 X36.2753 Y39.4249 F11.34
G01 X36.2702 Y39.4347 F11.34
G01 X36.2236 Y39.5126 F11.34
G01 X36.2173 Y39.5217 F11.34
G01 X36.2021 Y39.5422 F11.34
G01 X36.2021 Y39.9084 F11.34
G01 X36.2014 Y39.9303 F11.34
G01 X36.2004 Y39.9408 F11.34
G01 X36.1987 Y39.9512 F11.34
G01 X36.1953 Y39.9649 F11.34
G01 X36.1687 Y40.0532 F11.34
G01 X36.1662 Y40.0603 F11.34
G01 X36.1618 Y40.0706 F11.34
G01 X36.1548 Y40.0838 F11.34
G01 X36.1486 Y40.0932 F11.34
G01 X36.1394 Y40.1050 F11.34
G01 X36.0772 Y40.1731 F11.34
G01 X36.0666 Y40.1837 F11.34
G01 X36.0549 Y40.1931 F11.34
G01 X36.0424 Y40.2013 F11.34
G01 X36.0326 Y40.2066 F11.34
G01 X36.0258 Y40.2097 F11.34
G01 X35.9366 Y40.2455 F11.34
G01 X35.9224 Y40.2500 F11.34
G01 X35.9114 Y40.2525 F11.34
G01 X35.9003 Y40.2541 F11.34
G01 X35.8892 Y40.2549 F11.34
G01 X35.8742 Y40.2546 F11.34
G01 X35.7858 Y40.2487 F11.34
G01 X35.7747 Y40.2475 F11.34
G01 X35.7636 Y40.2455 F11.34
G01 X35.7564 Y40.2437 F11.34
G01 X35.6631 Y40.2158 F11.34
G01 X35.4496 Y40.1884 F11.34
G01 X35.2346 Y40.1963 F11.34
G01 X35.0238 Y40.2392 F11.34
G01 X34.8227 Y40.3160 F11.34
G01 X34.6370 Y40.4245 F11.34
G01 X34.5450 Y40.5006 F11.34
G01 X34.5360 Y40.5069 F11.34
G01 X34.4952 Y40.5331 F11.34
G01 X34.4824 Y40.5405 F11.34
G01 X34.4757 Y40.5437 F11.34
G01 X34.4654 Y40.5479 F11.34
G01 X34.4512 Y40.5522 F11.34
G01 X34.3539 Y40.5743 F11.34
G01 X34.3428 Y40.5758 F11.34
G01 X34.3278 Y40.5766 F11.34
G01 X33.7436 Y40.5765 F11.34
G01 X33.7296 Y40.5756 F11.34
G01 X33.6674 Y40.5668 F11.34
G01 X33.6532 Y40.5637 F11.34
G01 X33.6462 Y40.5616 F11.34
G01 X33.6359 Y40.5579 F11.34
G01 X33.6259 Y40.5535 F11.34
G01 X33.6194 Y40.5501 F11.34
G01 X33.5355 Y40.5035 F11.34
G01 X33.5262 Y40.4972 F11.34
G01 X33.5174 Y40.4903 F11.34
G01 X33.5091 Y40.4827 F11.34
G01 X33.5014 Y40.4745 F11.34
G01 X33.4922 Y40.4628 F11.34
G01 X33.4409 Y40.3905 F11.34
G01 X33.4329 Y40.3779 F11.34
G01 X33.4277 Y40.3680 F11.34
G01 X33.4247 Y40.3611 F11.34
G01 X33.3906 Y40.2788 F11.34
G01 X33.3171 Y40.1831 F11.34
G01 X33.2213 Y40.1096 F11.34
G01 X33.1098 Y40.0634 F11.34
G01 X33.0201 Y40.0516 F11.34
G01 X30.9600 Y40.0516 F11.34
G01 X30.8704 Y40.0634 F11.34
G01 X30.7588 Y40.1096 F11.34
G01 X30.6631 Y40.1831 F11.34
G01 X30.5896 Y40.2788 F11.34
G01 X30.5434 Y40.3904 F11.34
G01 X30.5316 Y40.4800 F11.34
G01 X30.5315 Y40.6605 F11.34
G01 X30.5306 Y40.6739 F11.34
G01 X30.5247 Y40.7253 F11.34
G01 X30.5233 Y40.7324 F11.34
G01 X30.5207 Y40.7429 F11.34
G01 X30.5174 Y40.7532 F11.34
G01 X30.5147 Y40.7599 F11.34
G01 X30.4699 Y40.8529 F11.34
G01 X30.4642 Y40.8625 F11.34
G01 X30.4554 Y40.8747 F11.34
G01 X30.4455 Y40.8859 F11.34
G01 X30.4374 Y40.8936 F11.34
G01 X30.3595 Y40.9559 F11.34
G01 X30.3503 Y40.9624 F11.34
G01 X30.3439 Y40.9663 F11.34
G01 X30.3340 Y40.9715 F11.34
G01 X30.3272 Y40.9746 F11.34
G01 X30.3167 Y40.9786 F11.34
G01 X30.3095 Y40.9808 F11.34
G01 X30.2160 Y41.0023 F11.34
G01 X30.2049 Y41.0044 F11.34
G01 X30.1938 Y41.0057 F11.34
G01 X30.1826 Y41.0061 F11.34
G01 X26.7244 Y41.0061 F11.34
G01 X26.7084 Y41.0089 F11.34
G01 X26.6974 Y41.0099 F11.34
G01 X26.6901 Y41.0101 F11.34
G01 X24.6827 Y41.0099 F11.34
G01 X24.6717 Y41.0089 F11.34
G01 X24.6572 Y41.0064 F11.34
G01 X24.6465 Y41.0036 F11.34
G01 X24.6361 Y41.0000 F11.34
G01 X24.6259 Y40.9957 F11.34
G01 X24.6130 Y40.9887 F11.34
G01 X24.6007 Y40.9806 F11.34
G01 X24.5921 Y40.9737 F11.34
G01 X24.5840 Y40.9661 F11.34
G01 X24.5741 Y40.9552 F11.34
G01 X24.5654 Y40.9434 F11.34
G01 X24.5596 Y40.9340 F11.34
G01 X24.5545 Y40.9242 F11.34
G01 X24.5501 Y40.9141 F11.34
G01 X24.5465 Y40.9036 F11.34
G01 X24.5430 Y40.8893 F11.34
G01 X24.5408 Y40.8748 F11.34
G01 X24.5401 Y40.8638 F11.34
G01 X24.5401 Y40.7025 F11.34
G01 X24.5353 Y40.6794 F11.34
G01 X24.5343 Y40.6720 F11.34
G01 X24.5336 Y40.6608 F11.34
G01 X24.5336 Y40.1939 F11.34
G01 X24.5319 Y40.1693 F11.34
G01 X24.4939 Y40.0170 F11.34
G01 X24.4255 Y39.8791 F11.34
G01 X24.3290 Y39.7591 F11.34
G01 X24.2090 Y39.6627 F11.34
G01 X24.0712 Y39.5942 F11.34
G01 X23.9188 Y39.5563 F11.34
G01 X23.8942 Y39.5546 F11.34
G01 X23.0809 Y39.5546 F11.34
G01 X23.0563 Y39.5563 F11.34
G01 X22.9040 Y39.5942 F11.34
G01 X22.7661 Y39.6627 F11.34
G01 X22.6688 Y39.7409 F11.34
G01 X22.6596 Y39.7478 F11.34
G01 X22.6499 Y39.7538 F11.34
G01 X22.6399 Y39.7592 F11.34
G01 X22.5552 Y39.7999 F11.34
G01 X22.5483 Y39.8028 F11.34
G01 X22.5376 Y39.8065 F11.34
G01 X22.5230 Y39.8102 F11.34
G01 X22.5118 Y39.8120 F11.34
G01 X22.4968 Y39.8131 F11.34
G01 X22.4007 Y39.8127 F11.34
G01 X22.3932 Y39.8123 F11.34
G01 X22.3821 Y39.8110 F11.34
G01 X22.3711 Y39.8089 F11.34
G01 X22.3638 Y39.8070 F11.34
G01 X22.3532 Y39.8035 F11.34
G01 X22.3428 Y39.7993 F11.34
G01 X22.2531 Y39.7555 F11.34
G01 X22.2435 Y39.7497 F11.34
G01 X22.2314 Y39.7409 F11.34
G01 X22.2207 Y39.7321 F11.34
G01 X22.2102 Y39.7218 F11.34
G01 X22.2029 Y39.7133 F11.34
G01 X22.1460 Y39.6416 F11.34
G01 X22.1377 Y39.6293 F11.34
G01 X22.1340 Y39.6229 F11.34
G01 X22.1290 Y39.6128 F11.34
G01 X22.1236 Y39.5990 F11.34
G01 X22.1195 Y39.5847 F11.34
G01 X22.0990 Y39.4947 F11.34
G01 X22.0972 Y39.4836 F11.34
G01 X22.0963 Y39.4724 F11.34
G01 X22.0961 Y38.3475 F11.34
G01 X22.0968 Y38.3367 F11.34
G01 X22.0982 Y38.3260 F11.34
G01 X22.1094 Y38.2602 F11.34
G01 X22.1116 Y38.2494 F11.34
G01 X22.1146 Y38.2388 F11.34
G01 X22.1185 Y38.2284 F11.34
G01 X22.1247 Y38.2151 F11.34
G01 X22.1302 Y38.2055 F11.34
G00 Z1.0000
G00 X22.0961 Y38.3503
G01 F15.40
G01 Z-0.1500
G01 F11.34
G01 X22.0961 Y38.3475 F11.34
G01 X22.0968 Y38.3367 F11.34
G01 X22.0982 Y38.3260 F11.34
G01 X22.1094 Y38.2602 F11.34
G01 X22.1116 Y38.2494 F11.34
G01 X22.1146 Y38.2388 F11.34
G01 X22.1185 Y38.2284 F11.34
G01 X22.1247 Y38.2151 F11.34
G01 X22.1302 Y38.2055 F11.34
G01 X22.1794 Y38.1274 F11.34
G01 X22.1883 Y38.1154 F11.34
G01 X22.1957 Y38.1070 F11.34
G01 X22.2180 Y38.0847 F11.34
G01 X22.1957 Y38.1070 F11.34
G01 X22.1883 Y38.1154 F11.34
G01 X22.1794 Y38.1274 F11.34
G01 X22.1302 Y38.2055 F11.34
G00 Z1.0000
G00 X23.0039 Y39.8909
G01 F15.40
G01 Z-0.1500
G01 F11.34
G01 X23.0340 Y39.8803 F11.34
G01 X23.0720 Y39.8708 F11.34
G01 X23.1109 Y39.8650 F11.34
G01 X23.1464 Y39.8631 F11.34
G01 X23.8251 Y39.8631 F11.34
G01 X23.8643 Y39.8650 F11.34
G01 X23.9031 Y39.8708 F11.34
G01 X23.9412 Y39.8803 F11.34
G01 X23.9781 Y39.8935 F11.34
G01 X24.0136 Y39.9103 F11.34
G01 X24.0473 Y39.9305 F11.34
G01 X24.0788 Y39.9539 F11.34
G01 X24.1079 Y39.9802 F11.34
G01 X24.1319 Y40.0065 F11.34
G01 X24.1388 Y40.0151 F11.34
G01 X24.1534 Y40.0348 F11.34
G01 X24.1616 Y40.0471 F11.34
G01 X24.1778 Y40.0745 F11.34
G01 X24.1946 Y40.1100 F11.34
G01 X24.2079 Y40.1470 F11.34
G01 X24.2158 Y40.1779 F11.34
G01 X24.2186 Y40.1923 F11.34
G01 X24.2227 Y40.2202 F11.34
G01 X24.2237 Y40.2312 F11.34
G01 X24.2251 Y40.2631 F11.34
G01 X24.2251 Y41.2131 F11.34
G01 X24.2237 Y41.2449 F11.34
G01 X24.2227 Y41.2559 F11.34
G01 X24.2174 Y41.2911 F11.34
G01 X24.2117 Y41.3145 F11.34
G01 X30.8401 Y41.3145 F11.34
G01 X30.8401 Y40.5101 F11.34
G01 X30.8408 Y40.4954 F11.34
G01 X30.8423 Y40.4844 F11.34
G01 X30.8446 Y40.4736 F11.34
G01 X30.8465 Y40.4665 F11.34
G01 X30.8501 Y40.4561 F11.34
G01 X30.8545 Y40.4459 F11.34
G01 X30.8578 Y40.4394 F11.34
G01 X30.8633 Y40.4298 F11.34
G01 X30.8696 Y40.4207 F11.34
G01 X30.8765 Y40.4121 F11.34
G01 X30.8840 Y40.4040 F11.34
G01 X30.8921 Y40.3965 F11.34
G01 X30.8978 Y40.3918 F11.34
G01 X30.9037 Y40.3874 F11.34
G01 X30.9130 Y40.3814 F11.34
G01 X30.9226 Y40.3761 F11.34
G01 X30.9293 Y40.3729 F11.34
G01 X30.9430 Y40.3676 F11.34
G01 X30.9572 Y40.3637 F11.34
G01 X30.9717 Y40.3612 F11.34
G01 X30.9827 Y40.3603 F11.34
G01 X30.9901 Y40.3601 F11.34
G01 X32.9938 Y40.3601 F11.34
G01 X33.0084 Y40.3612 F11.34
G01 X33.0193 Y40.3630 F11.34
G01 X33.0301 Y40.3655 F11.34
G01 X33.0406 Y40.3688 F11.34
G01 X33.0509 Y40.3729 F11.34
G01 X33.0608 Y40.3778 F11.34
G01 X33.0703 Y40.3833 F11.34
G01 X33.0824 Y40.3918 F11.34
G01 X33.0935 Y40.4014 F11.34
G01 X33.1012 Y40.4093 F11.34
G01 X33.1083 Y40.4178 F11.34
G01 X33.1148 Y40.4267 F11.34
G01 X33.1206 Y40.4361 F11.34
G01 X33.1257 Y40.4459 F11.34
G01 X33.1313 Y40.4595 F11.34
G01 X33.1346 Y40.4701 F11.34
G01 X33.1372 Y40.4808 F11.34
G01 X33.1385 Y40.4881 F11.34
G01 X33.1397 Y40.4990 F11.34
G01 X33.1400 Y40.5064 F11.34
G01 X33.1401 Y40.8850 F11.34
G01 X34.6025 Y40.8850 F11.34
G01 X34.6148 Y40.8686 F11.34
G01 X34.6194 Y40.8629 F11.34
G01 X34.6779 Y40.7983 F11.34
G01 X34.6856 Y40.7904 F11.34
G01 X34.7557 Y40.7271 F11.34
G01 X34.8345 Y40.6686 F11.34
G01 X34.9187 Y40.6182 F11.34
G01 X35.0007 Y40.5792 F11.34
G01 X35.0143 Y40.5735 F11.34
G01 X35.0928 Y40.5454 F11.34
G01 X35.1033 Y40.5421 F11.34
G01 X35.1950 Y40.5193 F11.34
G01 X35.2848 Y40.5058 F11.34
G01 X35.2994 Y40.5043 F11.34
G01 X35.3827 Y40.5003 F11.34
G01 X35.3974 Y40.5003 F11.34
G01 X35.4881 Y40.5049 F11.34
G01 X35.5852 Y40.5193 F11.34
G01 X35.6804 Y40.5431 F11.34
G01 X35.7659 Y40.5735 F11.34
G01 X35.7795 Y40.5792 F11.34
G01 X35.8549 Y40.6148 F11.34
G01 X35.8679 Y40.6218 F11.34
G01 X35.9456 Y40.6686 F11.34
G01 X36.0245 Y40.7271 F11.34
G01 X36.0972 Y40.7930 F11.34
G01 X36.1583 Y40.8601 F11.34
G01 X36.1676 Y40.8715 F11.34
G01 X36.2173 Y40.9385 F11.34
G01 X36.2255 Y40.9507 F11.34
G01 X36.2720 Y41.0287 F11.34
G01 X36.3140 Y41.1174 F11.34
G01 X36.3470 Y41.2098 F11.34
G01 X36.3692 Y41.2978 F11.34
G01 X36.3721 Y41.3122 F11.34
G01 X36.3844 Y41.3948 F11.34
G01 X36.3858 Y41.4094 F11.34
G01 X36.3901 Y41.5001 F11.34
G01 X36.3858 Y41.5907 F11.34
G01 X36.3849 Y41.6018 F11.34
G01 X36.3709 Y41.6952 F11.34
G01 X36.3470 Y41.7904 F11.34
G01 X36.3140 Y41.8828 F11.34
G01 X36.2753 Y41.9649 F11.34
G01 X36.2684 Y41.9779 F11.34
G01 X36.2255 Y42.0494 F11.34
G01 X36.2173 Y42.0617 F11.34
G01 X36.1631 Y42.1345 F11.34
G01 X36.1023 Y42.2018 F11.34
G01 X36.0918 Y42.2123 F11.34
G01 X36.0245 Y42.2731 F11.34
G01 X35.9456 Y42.3315 F11.34
G01 X35.8615 Y42.3820 F11.34
G01 X35.7728 Y42.4240 F11.34
G01 X35.6804 Y42.4570 F11.34
G01 X35.5852 Y42.4809 F11.34
G01 X35.4881 Y42.4953 F11.34
G01 X35.3938 Y42.5000 F11.34
G01 X35.3827 Y42.4999 F11.34
G01 X35.2921 Y42.4953 F11.34
G01 X35.2022 Y42.4821 F11.34
G01 X35.1878 Y42.4792 F11.34
G01 X35.1069 Y42.4590 F11.34
G01 X35.0928 Y42.4547 F11.34
G01 X35.0074 Y42.4240 F11.34
G01 X34.9187 Y42.3820 F11.34
G01 X34.8345 Y42.3315 F11.34
G01 X34.7615 Y42.2776 F11.34
G01 X34.7529 Y42.2707 F11.34
G01 X34.6830 Y42.2072 F11.34
G01 X34.6171 Y42.1345 F11.34
G01 X34.5586 Y42.0556 F11.34
G01 X34.5099 Y41.9747 F11.34
G01 X34.5048 Y41.9649 F11.34
G01 X34.4662 Y41.8828 F11.34
G01 X34.4342 Y41.7939 F11.34
G01 X34.4312 Y41.7833 F11.34
G01 X34.4101 Y41.6988 F11.34
G01 X34.4080 Y41.6879 F11.34
G01 X34.4002 Y41.6352 F11.34
G01 X33.1401 Y41.6352 F11.34
G01 X33.1400 Y42.0138 F11.34
G01 X33.1394 Y42.0248 F11.34
G01 X33.1385 Y42.0321 F11.34
G01 X33.1372 Y42.0393 F11.34
G01 X33.1346 Y42.0501 F11.34
G01 X33.1313 Y42.0606 F11.34
G01 X33.1272 Y42.0709 F11.34
G01 X33.1206 Y42.0840 F11.34
G01 X33.1148 Y42.0934 F11.34
G01 X33.1060 Y42.1052 F11.34
G01 X33.0987 Y42.1135 F11.34
G01 X33.0908 Y42.1212 F11.34
G01 X33.0824 Y42.1283 F11.34
G01 X33.0703 Y42.1368 F11.34
G01 X33.0608 Y42.1424 F11.34
G01 X33.0509 Y42.1472 F11.34
G01 X33.0406 Y42.1513 F11.34
G01 X33.0301 Y42.1546 F11.34
G01 X33.0193 Y42.1572 F11.34
G01 X33.0084 Y42.1589 F11.34
G01 X32.9974 Y42.1599 F11.34
G01 X30.9827 Y42.1599 F11.34
G01 X30.9717 Y42.1589 F11.34
G01 X30.9608 Y42.1572 F11.34
G01 X30.9501 Y42.1546 F11.34
G01 X30.9395 Y42.1513 F11.34
G01 X30.9293 Y42.1472 F11.34
G01 X30.9194 Y42.1424 F11.34
G01 X30.9130 Y42.1387 F11.34
G01 X30.9037 Y42.1327 F11.34
G01 X30.8949 Y42.1260 F11.34
G01 X30.8866 Y42.1187 F11.34
G01 X30.8789 Y42.1108 F11.34
G01 X30.8718 Y42.1024 F11.34
G01 X30.8654 Y42.0934 F11.34
G01 X30.8596 Y42.0840 F11.34
G01 X30.8545 Y42.0742 F11.34
G01 X30.8504 Y42.0647 F11.34
G01 X23.8606 Y42.0647 F11.34
G01 X23.8311 Y42.0634 F11.34
G01 X23.8201 Y42.0625 F11.34
G01 X23.7874 Y42.0575 F11.34
G01 X23.7588 Y42.0505 F11.34
G01 X23.7447 Y42.0462 F11.34
G01 X23.7170 Y42.0361 F11.34
G01 X23.6903 Y42.0237 F11.34
G01 X23.6773 Y42.0168 F11.34
G01 X23.6522 Y42.0015 F11.34
G01 X23.6255 Y41.9819 F11.34
G01 X23.6170 Y41.9747 F11.34
G01 X23.5953 Y41.9548 F11.34
G01 X23.2536 Y41.6131 F11.34
G01 X23.1427 Y41.6129 F11.34
G01 X23.1109 Y41.6111 F11.34
G01 X23.0720 Y41.6054 F11.34
G01 X23.0340 Y41.5959 F11.34
G01 X22.9970 Y41.5826 F11.34
G01 X22.9615 Y41.5658 F11.34
G01 X22.9278 Y41.5457 F11.34
G01 X22.8963 Y41.5223 F11.34
G01 X22.8726 Y41.5010 F11.34
G01 X22.8622 Y41.4906 F11.34
G01 X22.8409 Y41.4668 F11.34
G01 X22.8175 Y41.4353 F11.34
G01 X22.8009 Y41.4080 F11.34
G01 X22.7940 Y41.3951 F11.34
G01 X22.7835 Y41.3729 F11.34
G01 X22.7792 Y41.3627 F11.34
G01 X22.7673 Y41.3292 F11.34
G01 X22.7578 Y41.2911 F11.34
G01 X22.7520 Y41.2523 F11.34
G01 X22.7501 Y41.2168 F11.34
G01 X22.7501 Y40.2631 F11.34
G01 X22.7520 Y40.2239 F11.34
G01 X22.7565 Y40.1923 F11.34
G01 X22.7594 Y40.1779 F11.34
G01 X22.7673 Y40.1470 F11.34
G01 X22.7779 Y40.1169 F11.34
G01 X22.7835 Y40.1033 F11.34
G01 X22.7973 Y40.0745 F11.34
G01 X22.8135 Y40.0471 F11.34
G01 X22.8217 Y40.0348 F11.34
G01 X22.8409 Y40.0093 F11.34
G01 X22.8622 Y39.9856 F11.34
G01 X22.8726 Y39.9752 F11.34
G01 X22.8963 Y39.9539 F11.34
G01 X22.9218 Y39.9347 F11.34
G01 X22.9341 Y39.9265 F11.34
G01 X22.9615 Y39.9103 F11.34
G01 X22.9903 Y39.8965 F11.34
G01 X23.0039 Y39.8909 F11.34
G00 Z1.0000
G00 X22.8778 Y39.9705
G01 F15.40
G01 Z-0.1500
G01 F11.34
G01 X22.8963 Y39.9539 F11.34
G01 X22.9218 Y39.9347 F11.34
G01 X22.9341 Y39.9265 F11.34
G01 X22.9615 Y39.9103 F11.34
G01 X22.9903 Y39.8965 F11.34
G01 X23.0039 Y39.8909 F11.34
G01 X23.0340 Y39.8803 F11.34
G01 X23.0720 Y39.8708 F11.34
G01 X23.1109 Y39.8650 F11.34
G01 X23.1464 Y39.8631 F11.34
G01 X23.1504 Y39.8631 F11.34
G01 X23.1464 Y39.8631 F11.34
G01 X23.1109 Y39.8650 F11.34
G01 X23.0720 Y39.8708 F11.34
G01 X23.0340 Y39.8803 F11.34
G01 X23.0039 Y39.8909 F11.34
G00 Z1.0000
G00 X20.9289 Y39.8909
G01 F15.40
G01 Z-0.1500
G01 F11.34
G01 X20.9590 Y39.8803 F11.34
G01 X20.9899 Y39.8724 F11.34
G01 X21.0043 Y39.8695 F11.34
G01 X21.0375 Y39.8649 F11.34
G01 X21.0375 Y37.9197 F11.34
G01 X21.0393 Y37.8866 F11.34
G01 X21.0447 Y37.8502 F11.34
G01 X21.0536 Y37.8145 F11.34
G01 X21.0660 Y37.7799 F11.34
G01 X21.0818 Y37.7466 F11.34
G01 X21.1007 Y37.7150 F11.34
G01 X21.1226 Y37.6854 F11.34
G01 X21.1448 Y37.6608 F11.34
G01 X22.5251 Y36.2804 F11.34
G01 X22.5251 Y35.8626 F11.34
G01 X22.5265 Y35.8307 F11.34
G01 X22.5279 Y35.8161 F11.34
G01 X22.5315 Y35.7918 F11.34
G01 X22.5335 Y35.7809 F11.34
G01 X22.5423 Y35.7465 F11.34
G01 X22.5529 Y35.7164 F11.34
G01 X22.5585 Y35.7028 F11.34
G01 X22.5723 Y35.6740 F11.34
G01 X22.5925 Y35.6403 F11.34
G01 X22.6159 Y35.6088 F11.34
G01 X22.6372 Y35.5851 F11.34
G01 X22.6476 Y35.5747 F11.34
G01 X22.6713 Y35.5534 F11.34
G01 X22.6968 Y35.5342 F11.34
G01 X22.7059 Y35.5280 F11.34
G01 X22.7333 Y35.5116 F11.34
G01 X22.7431 Y35.5065 F11.34
G01 X22.7720 Y35.4930 F11.34
G01 X22.8020 Y35.4821 F11.34
G01 X22.8125 Y35.4788 F11.34
G01 X22.8470 Y35.4703 F11.34
G01 X22.8786 Y35.4654 F11.34
G01 X22.8932 Y35.4640 F11.34
G01 X22.9251 Y35.4626 F11.34
G01 X23.8751 Y35.4626 F11.34
G01 X23.9143 Y35.4645 F11.34
G01 X23.9459 Y35.4690 F11.34
G01 X23.9567 Y35.4710 F11.34
G01 X23.9912 Y35.4798 F11.34
G01 X24.0247 Y35.4917 F11.34
G01 X24.0349 Y35.4960 F11.34
G01 X24.0571 Y35.5065 F11.34
G01 X24.0700 Y35.5134 F11.34
G01 X24.0973 Y35.5300 F11.34
G01 X24.1288 Y35.5534 F11.34
G01 X24.1579 Y35.5797 F11.34
G01 X24.1795 Y35.6032 F11.34
G01 X24.1888 Y35.6146 F11.34
G01 X24.2056 Y35.6373 F11.34
G01 X24.2116 Y35.6466 F11.34
G01 X24.2278 Y35.6740 F11.34
G01 X24.2446 Y35.7095 F11.34
G01 X24.2579 Y35.7465 F11.34
G01 X24.2658 Y35.7774 F11.34
G01 X24.2686 Y35.7918 F11.34
G01 X24.2733 Y35.8250 F11.34
G01 X30.8666 Y35.8250 F11.34
G01 X30.8765 Y35.8121 F11.34
G01 X30.8814 Y35.8066 F11.34
G01 X30.8893 Y35.7989 F11.34
G01 X30.8949 Y35.7941 F11.34
G01 X30.9037 Y35.7874 F11.34
G01 X30.9130 Y35.7814 F11.34
G01 X30.9194 Y35.7778 F11.34
G01 X30.9293 Y35.7729 F11.34
G01 X30.9361 Y35.7701 F11.34
G01 X30.9430 Y35.7676 F11.34
G01 X30.9536 Y35.7646 F11.34
G01 X30.9681 Y35.7617 F11.34
G01 X30.9790 Y35.7605 F11.34
G01 X30.9864 Y35.7601 F11.34
G01 X32.9901 Y35.7601 F11.34
G01 X33.0011 Y35.7605 F11.34
G01 X33.0121 Y35.7617 F11.34
G01 X33.0229 Y35.7637 F11.34
G01 X33.0336 Y35.7665 F11.34
G01 X33.0441 Y35.7701 F11.34
G01 X33.0542 Y35.7745 F11.34
G01 X33.0672 Y35.7814 F11.34
G01 X33.0764 Y35.7874 F11.34
G01 X33.0852 Y35.7941 F11.34
G01 X33.0935 Y35.8014 F11.34
G01 X33.1037 Y35.8121 F11.34
G01 X33.1106 Y35.8207 F11.34
G01 X33.1168 Y35.8298 F11.34
G01 X33.1224 Y35.8394 F11.34
G01 X33.1272 Y35.8493 F11.34
G01 X33.1313 Y35.8595 F11.34
G01 X33.1346 Y35.8701 F11.34
G01 X33.1372 Y35.8808 F11.34
G01 X33.1385 Y35.8881 F11.34
G01 X33.1397 Y35.8990 F11.34
G01 X33.1400 Y35.9064 F11.34
G01 X33.1401 Y36.2850 F11.34
G01 X34.3901 Y36.2850 F11.34
G01 X34.3901 Y35.5701 F11.34
G01 X34.3905 Y35.5590 F11.34
G01 X34.3917 Y35.5481 F11.34
G01 X34.3937 Y35.5372 F11.34
G01 X34.3965 Y35.5265 F11.34
G01 X34.4001 Y35.5161 F11.34
G01 X34.4045 Y35.5059 F11.34
G01 X34.4096 Y35.4961 F11.34
G01 X34.4154 Y35.4867 F11.34
G01 X34.4218 Y35.4778 F11.34
G01 X34.4289 Y35.4693 F11.34
G01 X34.4366 Y35.4614 F11.34
G01 X34.4478 Y35.4518 F11.34
G01 X34.4567 Y35.4454 F11.34
G01 X34.4661 Y35.4396 F11.34
G01 X34.4759 Y35.4345 F11.34
G01 X34.4861 Y35.4301 F11.34
G01 X34.4965 Y35.4265 F11.34
G01 X34.5072 Y35.4237 F11.34
G01 X34.5217 Y35.4212 F11.34
G01 X34.5327 Y35.4203 F11.34
G01 X34.5401 Y35.4201 F11.34
G01 X36.2474 Y35.4203 F11.34
G01 X36.2584 Y35.4212 F11.34
G01 X36.2729 Y35.4237 F11.34
G01 X36.2836 Y35.4265 F11.34
G01 X36.2941 Y35.4301 F11.34
G01 X36.3042 Y35.4345 F11.34
G01 X36.3172 Y35.4414 F11.34
G01 X36.3264 Y35.4474 F11.34
G01 X36.3352 Y35.4541 F11.34
G01 X36.3435 Y35.4614 F11.34
G01 X36.3512 Y35.4693 F11.34
G01 X36.3583 Y35.4778 F11.34
G01 X36.3668 Y35.4898 F11.34
G01 X36.3724 Y35.4994 F11.34
G01 X36.3772 Y35.5093 F11.34
G01 X36.3813 Y35.5195 F11.34
G01 X36.3846 Y35.5301 F11.34
G01 X36.3872 Y35.5408 F11.34
G01 X36.3885 Y35.5481 F11.34
G01 X36.3897 Y35.5590 F11.34
G01 X36.3901 Y35.5701 F11.34
G01 X36.3901 Y37.2701 F11.34
G01 X36.3897 Y37.2811 F11.34
G01 X36.3885 Y37.2921 F11.34
G01 X36.3856 Y37.3065 F11.34
G01 X36.3825 Y37.3171 F11.34
G01 X36.3772 Y37.3309 F11.34
G01 X36.3706 Y37.3440 F11.34
G01 X36.3627 Y37.3564 F11.34
G01 X36.3537 Y37.3681 F11.34
G01 X36.3461 Y37.3761 F11.34
G01 X36.3352 Y37.3860 F11.34
G01 X36.3264 Y37.3927 F11.34
G01 X36.3172 Y37.3987 F11.34
G01 X36.3042 Y37.4057 F11.34
G01 X36.2906 Y37.4113 F11.34
G01 X36.2801 Y37.4146 F11.34
G01 X36.2693 Y37.4172 F11.34
G01 X36.2548 Y37.4194 F11.34
G01 X36.2401 Y37.4201 F11.34
G01 X34.5401 Y37.4201 F11.34
G01 X34.5290 Y37.4197 F11.34
G01 X34.5217 Y37.4189 F11.34
G01 X34.5108 Y37.4172 F11.34
G01 X34.5001 Y37.4146 F11.34
G01 X34.4895 Y37.4113 F11.34
G01 X34.4827 Y37.4087 F11.34
G01 X34.4726 Y37.4041 F11.34
G01 X34.4630 Y37.3987 F11.34
G01 X34.4537 Y37.3927 F11.34
G01 X34.4449 Y37.3860 F11.34
G01 X34.4393 Y37.3812 F11.34
G01 X34.4314 Y37.3735 F11.34
G01 X34.4241 Y37.3652 F11.34
G01 X34.4174 Y37.3564 F11.34
G01 X34.4114 Y37.3472 F11.34
G01 X34.4061 Y37.3375 F11.34
G01 X34.4015 Y37.3275 F11.34
G01 X34.3976 Y37.3171 F11.34
G01 X34.3946 Y37.3065 F11.34
G01 X34.3923 Y37.2957 F11.34
G01 X34.3908 Y37.2848 F11.34
G01 X34.3901 Y37.2738 F11.34
G01 X34.3901 Y37.0352 F11.34
G01 X33.1401 Y37.0352 F11.34
G01 X33.1401 Y37.4101 F11.34
G01 X33.1399 Y37.4174 F11.34
G01 X33.1389 Y37.4284 F11.34
G01 X33.1364 Y37.4429 F11.34
G01 X33.1336 Y37.4536 F11.34
G01 X33.1313 Y37.4606 F11.34
G01 X33.1272 Y37.4709 F11.34
G01 X33.1224 Y37.4808 F11.34
G01 X33.1168 Y37.4903 F11.34
G01 X33.1127 Y37.4964 F11.34
G01 X33.1060 Y37.5052 F11.34
G01 X33.0987 Y37.5135 F11.34
G01 X33.0908 Y37.5212 F11.34
G01 X33.0824 Y37.5283 F11.34
G01 X33.0734 Y37.5348 F11.34
G01 X33.0640 Y37.5406 F11.34
G01 X33.0542 Y37.5457 F11.34
G01 X33.0441 Y37.5500 F11.34
G01 X33.0336 Y37.5536 F11.34
G01 X33.0265 Y37.5556 F11.34
G01 X33.0193 Y37.5572 F11.34
G01 X33.0084 Y37.5589 F11.34
G01 X32.9974 Y37.5599 F11.34
G01 X32.9901 Y37.5601 F11.34
G01 X30.9901 Y37.5601 F11.34
G01 X30.9790 Y37.5597 F11.34
G01 X30.9681 Y37.5585 F11.34
G01 X30.9572 Y37.5564 F11.34
G01 X30.9465 Y37.5536 F11.34
G01 X30.9361 Y37.5500 F11.34
G01 X30.9226 Y37.5441 F11.34
G01 X30.9130 Y37.5387 F11.34
G01 X30.9007 Y37.5306 F11.34
G01 X30.8921 Y37.5237 F11.34
G01 X30.8840 Y37.5161 F11.34
G01 X30.8765 Y37.5081 F11.34
G01 X30.8696 Y37.4994 F11.34
G01 X30.8633 Y37.4903 F11.34
G01 X30.8561 Y37.4775 F11.34
G01 X30.8515 Y37.4675 F11.34
G01 X30.8465 Y37.4536 F11.34
G01 X30.8430 Y37.4393 F11.34
G01 X30.8412 Y37.4284 F11.34
G01 X30.8405 Y37.4211 F11.34
G01 X30.8401 Y37.4101 F11.34
G01 X30.8401 Y36.5752 F11.34
G01 X24.2733 Y36.5752 F11.34
G01 X24.2686 Y36.6084 F11.34
G01 X24.2658 Y36.6228 F11.34
G01 X24.2579 Y36.6537 F11.34
G01 X24.2446 Y36.6906 F11.34
G01 X24.2278 Y36.7261 F11.34
G01 X24.2116 Y36.7536 F11.34
G01 X24.2034 Y36.7658 F11.34
G01 X24.1843 Y36.7913 F11.34
G01 X24.1630 Y36.8151 F11.34
G01 X24.1526 Y36.8255 F11.34
G01 X24.1288 Y36.8468 F11.34
G01 X24.0973 Y36.8702 F11.34
G01 X24.0636 Y36.8903 F11.34
G01 X24.0349 Y36.9041 F11.34
G01 X24.0213 Y36.9098 F11.34
G01 X23.9982 Y36.9180 F11.34
G01 X23.9877 Y36.9214 F11.34
G01 X23.9531 Y36.9299 F11.34
G01 X23.9216 Y36.9347 F11.34
G01 X23.9106 Y36.9360 F11.34
G01 X23.8788 Y36.9375 F11.34
G01 X22.9289 Y36.9376 F11.34
G01 X21.7877 Y38.0788 F11.34
G01 X21.7877 Y39.8649 F11.34
G01 X21.7966 Y39.8659 F11.34
G01 X21.8281 Y39.8708 F11.34
G01 X21.8591 Y39.8783 F11.34
G01 X21.8732 Y39.8826 F11.34
G01 X21.8997 Y39.8922 F11.34
G01 X21.9099 Y39.8965 F11.34
G01 X21.9386 Y39.9103 F11.34
G01 X21.9723 Y39.9305 F11.34
G01 X22.0038 Y39.9539 F11.34
G01 X22.0329 Y39.9802 F11.34
G01 X22.0593 Y40.0093 F11.34
G01 X22.0827 Y40.0408 F11.34
G01 X22.1028 Y40.0745 F11.34
G01 X22.1166 Y40.1033 F11.34
G01 X22.1223 Y40.1169 F11.34
G01 X22.1317 Y40.1435 F11.34
G01 X22.1348 Y40.1541 F11.34
G01 X22.1408 Y40.1779 F11.34
G01 X22.1431 Y40.1887 F11.34
G01 X22.1477 Y40.2202 F11.34
G01 X22.1487 Y40.2312 F11.34
G01 X22.1501 Y40.2631 F11.34
G01 X22.1501 Y41.2131 F11.34
G01 X22.1487 Y41.2449 F11.34
G01 X22.1472 Y41.2596 F11.34
G01 X22.1431 Y41.2875 F11.34
G01 X22.1408 Y41.2983 F11.34
G01 X22.1329 Y41.3292 F11.34
G01 X22.1223 Y41.3593 F11.34
G01 X22.1182 Y41.3695 F11.34
G01 X22.1045 Y41.3984 F11.34
G01 X22.0992 Y41.4080 F11.34
G01 X22.0847 Y41.4322 F11.34
G01 X22.0784 Y41.4413 F11.34
G01 X22.0593 Y41.4668 F11.34
G01 X22.0329 Y41.4959 F11.34
G01 X22.0038 Y41.5223 F11.34
G01 X21.9783 Y41.5414 F11.34
G01 X21.9692 Y41.5477 F11.34
G01 X21.9419 Y41.5641 F11.34
G01 X21.9321 Y41.5692 F11.34
G01 X21.9031 Y41.5826 F11.34
G01 X21.8732 Y41.5935 F11.34
G01 X21.8591 Y41.5978 F11.34
G01 X21.8281 Y41.6054 F11.34
G01 X21.7966 Y41.6102 F11.34
G01 X21.7856 Y41.6115 F11.34
G01 X21.7501 Y41.6131 F11.34
G01 X21.0751 Y41.6131 F11.34
G01 X21.0359 Y41.6111 F11.34
G01 X20.9970 Y41.6054 F11.34
G01 X20.9661 Y41.5978 F11.34
G01 X20.9520 Y41.5935 F11.34
G01 X20.9220 Y41.5826 F11.34
G01 X20.8931 Y41.5692 F11.34
G01 X20.8833 Y41.5641 F11.34
G01 X20.8591 Y41.5496 F11.34
G01 X20.8468 Y41.5414 F11.34
G01 X20.8213 Y41.5223 F11.34
G01 X20.7922 Y41.4959 F11.34
G01 X20.7659 Y41.4668 F11.34
G01 X20.7467 Y41.4413 F11.34
G01 X20.7405 Y41.4322 F11.34
G01 X20.7223 Y41.4016 F11.34
G01 X20.7085 Y41.3729 F11.34
G01 X20.7042 Y41.3627 F11.34
G01 X20.6934 Y41.3327 F11.34
G01 X20.6903 Y41.3221 F11.34
G01 X20.6828 Y41.2911 F11.34
G01 X20.6779 Y41.2596 F11.34
G01 X20.6765 Y41.2449 F11.34
G01 X20.6751 Y41.2131 F11.34
G01 X20.6751 Y40.2631 F11.34
G01 X20.6765 Y40.2312 F11.34
G01 X20.6774 Y40.2202 F11.34
G01 X20.6828 Y40.1850 F11.34
G01 X20.6903 Y40.1541 F11.34
G01 X20.6946 Y40.1400 F11.34
G01 X20.7055 Y40.1100 F11.34
G01 X20.7190 Y40.0811 F11.34
G01 X20.7259 Y40.0681 F11.34
G01 X20.7425 Y40.0408 F11.34
G01 X20.7636 Y40.0122 F11.34
G01 X20.7707 Y40.0037 F11.34
G01 X20.7872 Y39.9856 F11.34
G01 X20.7949 Y39.9777 F11.34
G01 X20.8213 Y39.9539 F11.34
G01 X20.8468 Y39.9347 F11.34
G01 X20.8591 Y39.9265 F11.34
G01 X20.8865 Y39.9103 F11.34
G01 X20.9153 Y39.8965 F11.34
G01 X20.9289 Y39.8909 F11.34
G00 Z1.0000
G00 X20.8028 Y39.9705
G01 F15.40
G01 Z-0.1500
G01 F11.34
G01 X20.8213 Y39.9539 F11.34
G01 X20.8468 Y39.9347 F11.34
G01 X20.8591 Y39.9265 F11.34
G01 X20.8865 Y39.9103 F11.34
G01 X20.9153 Y39.8965 F11.34
G01 X20.9289 Y39.8909 F11.34
G01 X20.9590 Y39.8803 F11.34
G01 X20.9899 Y39.8724 F11.34
G01 X21.0043 Y39.8695 F11.34
G01 X21.0375 Y39.8649 F11.34
G01 X21.0375 Y39.8269 F11.34
G01 X21.0375 Y39.8649 F11.34
G01 X21.0043 Y39.8695 F11.34
G01 X20.9899 Y39.8724 F11.34
G01 X20.9590 Y39.8803 F11.34
G01 X20.9289 Y39.8909 F11.34
G00 Z1.0000
M05
G00 Z1.0000
G00 Z1.00
G00 X20.0 Y35.0


   (Move to maintenance position)
 G21 G90 G53 F200 Z-1
 G21 G90 G17 F200 X28.405074937518762
 G21 G90 G53 F200 Y0 Z-1
				G17
				
  (########## ACTION ##########)
 (Clean the chips)
 M0
 
 
 
