(G-CODE GENERATED BY FLATCAM v8.994 - www.flatcam.org - Version Date: 2020/11/7)

(Name: Front_FET_and_mask.nc)
(Type: G-code from Geometry)
(Units: MM)

(Created on Friday, 31 October 2025 at 16:13)


   (Move to maintenance position)
 G21 G90 G53 F200 Z-1
 G21 G90 G17 F200 X28.405074937518762
 G21 G90 G53 F200 Y0 Z-1
				G17
				
				 (########## ACTION ##########)
 (Insert F.E.T. tool with 0.2mm bit)
 M0
 
 
  (Move to PCB Front 0x0)
 G21 G90 X20 Y35 F200
 
				 (########## ACTION ##########)
 (Connect probe to PCB)
 M0
 
 (Z Probe)
 G21 G90 G53 Z-12
 G91 G21
 G38.2 Z-35 F10
 G92 Z0
 G90
 G0 Z1

				
 
  (########## ACTION ##########)
 (Disconnect probe)
 M0
 
  (Move to maintenance position)
 G21 G90 G53 F200 Z-1
 G21 G90 G17 F200 X28.405074937518762
 G21 G90 G53 F200 Y0 Z-1
				G17
				
  (########## ACTION ##########)
 (Apply solder mask to even out milled regions)
 M0
 
  (########## ACTION ##########)
 (Apply solder mask to everything)
 M0
 
 

