(G-CODE GENERATED BY FLATCAM v8.994 - www.flatcam.org - Version Date: 2020/11/7)

(Name: F_Mask_Mask.nc)
(Type: G-code from Geometry)
(Units: MM)

(Created on Friday, 31 October 2025 at 16:13)

(This preprocessor is used with a motion controller loaded with GRBL firmware.)
(It is configured to be compatible with almost any version of GRBL firmware.)

(TOOL DIAMETER: 0.2 mm)
(Feedrate_XY: 100.0 mm/min)
(Feedrate_Z: 100.0 mm/min)
(Feedrate rapids 1500.0 mm/min)

(Z_Cut: -0.1 mm)
(Z_Move: 1.0 mm)
(Z Start: None mm)
(Z End: 1.0 mm)
(X,Y End: 20.0000, 35.0000 mm)
(Steps per circle: 64)
(Steps per circle: 64)
(Preprocessor Geometry: GRBL_11_no_M6)

(X range:   20.9251 ...   36.1401  mm)
(Y range:   35.6701 ...   42.2500  mm)

(Spindle Speed: 10000 RPM)
G21
G90
G17
G94


G01 F100.00
G00 Z1.0000

M03 S10000
G4 P3.0
G00 X22.8677 Y35.7241
G01 F100.00
G01 Z-0.1000
G01 F100.00
G01 X22.8544 Y35.7304 F100.00
G01 X22.8418 Y35.7380 F100.00
G01 X22.8300 Y35.7467 F100.00
G01 X22.8191 Y35.7566 F100.00
G01 X22.8092 Y35.7675 F100.00
G01 X22.8005 Y35.7793 F100.00
G01 X22.7929 Y35.7919 F100.00
G01 X22.7866 Y35.8052 F100.00
G01 X22.7816 Y35.8191 F100.00
G01 X22.7781 Y35.8333 F100.00
G01 X22.7759 Y35.8479 F100.00
G01 X22.7751 Y35.8650 F100.00
G01 X22.7751 Y36.5351 F100.00
G01 X22.7759 Y36.5523 F100.00
G01 X22.7781 Y36.5668 F100.00
G01 X22.7816 Y36.5811 F100.00
G01 X22.7866 Y36.5949 F100.00
G01 X22.7929 Y36.6082 F100.00
G01 X22.8005 Y36.6208 F100.00
G01 X22.8092 Y36.6327 F100.00
G01 X22.8191 Y36.6436 F100.00
G01 X22.8300 Y36.6534 F100.00
G01 X22.8418 Y36.6622 F100.00
G01 X22.8544 Y36.6698 F100.00
G01 X22.8677 Y36.6760 F100.00
G01 X22.8816 Y36.6810 F100.00
G01 X22.8958 Y36.6846 F100.00
G01 X22.9104 Y36.6867 F100.00
G01 X22.9275 Y36.6876 F100.00
G01 X23.8726 Y36.6876 F100.00
G01 X23.8898 Y36.6867 F100.00
G01 X23.9043 Y36.6846 F100.00
G01 X23.9186 Y36.6810 F100.00
G01 X23.9324 Y36.6760 F100.00
G01 X23.9457 Y36.6698 F100.00
G01 X23.9583 Y36.6622 F100.00
G01 X23.9702 Y36.6534 F100.00
G01 X23.9811 Y36.6436 F100.00
G01 X23.9909 Y36.6327 F100.00
G01 X23.9997 Y36.6208 F100.00
G01 X24.0073 Y36.6082 F100.00
G01 X24.0135 Y36.5949 F100.00
G01 X24.0185 Y36.5811 F100.00
G01 X24.0221 Y36.5668 F100.00
G01 X24.0242 Y36.5523 F100.00
G01 X24.0251 Y36.5351 F100.00
G01 X24.0251 Y35.8650 F100.00
G01 X24.0242 Y35.8479 F100.00
G01 X24.0221 Y35.8333 F100.00
G01 X24.0185 Y35.8191 F100.00
G01 X24.0135 Y35.8052 F100.00
G01 X24.0073 Y35.7919 F100.00
G01 X23.9997 Y35.7793 F100.00
G01 X23.9909 Y35.7675 F100.00
G01 X23.9811 Y35.7566 F100.00
G01 X23.9702 Y35.7467 F100.00
G01 X23.9583 Y35.7380 F100.00
G01 X23.9457 Y35.7304 F100.00
G01 X23.9324 Y35.7241 F100.00
G01 X23.9186 Y35.7191 F100.00
G01 X23.9043 Y35.7156 F100.00
G01 X23.8898 Y35.7134 F100.00
G01 X23.8726 Y35.7126 F100.00
G01 X22.9275 Y35.7126 F100.00
G01 X22.9104 Y35.7134 F100.00
G01 X22.8958 Y35.7156 F100.00
G01 X22.8816 Y35.7191 F100.00
G01 X22.8677 Y35.7241 F100.00
G01 X22.7751 Y35.8876 F100.00
G01 X24.0251 Y35.8876 F100.00
G01 X24.0251 Y36.0876 F100.00
G01 X22.7751 Y36.0876 F100.00
G01 X22.7751 Y36.2876 F100.00
G01 X24.0251 Y36.2876 F100.00
G01 X24.0251 Y36.4876 F100.00
G01 X22.7751 Y36.4876 F100.00
G00 Z1.0000
G00 X22.8677 Y37.7991
G01 F100.00
G01 Z-0.1000
G01 F100.00
G01 X22.8544 Y37.8054 F100.00
G01 X22.8418 Y37.8130 F100.00
G01 X22.8300 Y37.8217 F100.00
G01 X22.8191 Y37.8316 F100.00
G01 X22.8092 Y37.8425 F100.00
G01 X22.8005 Y37.8543 F100.00
G01 X22.7929 Y37.8669 F100.00
G01 X22.7866 Y37.8802 F100.00
G01 X22.7816 Y37.8941 F100.00
G01 X22.7781 Y37.9083 F100.00
G01 X22.7759 Y37.9229 F100.00
G01 X22.7751 Y37.9400 F100.00
G01 X22.7751 Y38.6101 F100.00
G01 X22.7759 Y38.6273 F100.00
G01 X22.7781 Y38.6418 F100.00
G01 X22.7816 Y38.6561 F100.00
G01 X22.7866 Y38.6699 F100.00
G01 X22.7929 Y38.6832 F100.00
G01 X22.8005 Y38.6958 F100.00
G01 X22.8092 Y38.7077 F100.00
G01 X22.8191 Y38.7186 F100.00
G01 X22.8300 Y38.7284 F100.00
G01 X22.8418 Y38.7372 F100.00
G01 X22.8544 Y38.7448 F100.00
G01 X22.8677 Y38.7510 F100.00
G01 X22.8816 Y38.7560 F100.00
G01 X22.8958 Y38.7596 F100.00
G01 X22.9104 Y38.7617 F100.00
G01 X22.9275 Y38.7626 F100.00
G01 X23.8726 Y38.7626 F100.00
G01 X23.8898 Y38.7617 F100.00
G01 X23.9043 Y38.7596 F100.00
G01 X23.9186 Y38.7560 F100.00
G01 X23.9324 Y38.7510 F100.00
G01 X23.9457 Y38.7448 F100.00
G01 X23.9583 Y38.7372 F100.00
G01 X23.9702 Y38.7284 F100.00
G01 X23.9811 Y38.7186 F100.00
G01 X23.9909 Y38.7077 F100.00
G01 X23.9997 Y38.6958 F100.00
G01 X24.0073 Y38.6832 F100.00
G01 X24.0135 Y38.6699 F100.00
G01 X24.0185 Y38.6561 F100.00
G01 X24.0221 Y38.6418 F100.00
G01 X24.0242 Y38.6273 F100.00
G01 X24.0251 Y38.6101 F100.00
G01 X24.0251 Y37.9400 F100.00
G01 X24.0242 Y37.9229 F100.00
G01 X24.0221 Y37.9083 F100.00
G01 X24.0185 Y37.8941 F100.00
G01 X24.0135 Y37.8802 F100.00
G01 X24.0073 Y37.8669 F100.00
G01 X23.9997 Y37.8543 F100.00
G01 X23.9909 Y37.8425 F100.00
G01 X23.9811 Y37.8316 F100.00
G01 X23.9702 Y37.8217 F100.00
G01 X23.9583 Y37.8130 F100.00
G01 X23.9457 Y37.8054 F100.00
G01 X23.9324 Y37.7991 F100.00
G01 X23.9186 Y37.7941 F100.00
G01 X23.9043 Y37.7906 F100.00
G01 X23.8898 Y37.7884 F100.00
G01 X23.8726 Y37.7876 F100.00
G01 X22.9275 Y37.7876 F100.00
G01 X22.9104 Y37.7884 F100.00
G01 X22.8958 Y37.7906 F100.00
G01 X22.8816 Y37.7941 F100.00
G01 X22.8677 Y37.7991 F100.00
G01 X22.7751 Y37.9626 F100.00
G01 X24.0251 Y37.9626 F100.00
G01 X24.0251 Y38.1626 F100.00
G01 X22.7751 Y38.1626 F100.00
G01 X22.7751 Y38.3626 F100.00
G01 X24.0251 Y38.3626 F100.00
G01 X24.0251 Y38.5626 F100.00
G01 X22.7751 Y38.5626 F100.00
G00 Z1.0000
G00 X23.0927 Y40.1246
G01 F100.00
G01 Z-0.1000
G01 F100.00
G01 X23.0794 Y40.1309 F100.00
G01 X23.0668 Y40.1385 F100.00
G01 X23.0550 Y40.1472 F100.00
G01 X23.0441 Y40.1571 F100.00
G01 X23.0342 Y40.1680 F100.00
G01 X23.0255 Y40.1798 F100.00
G01 X23.0179 Y40.1924 F100.00
G01 X23.0116 Y40.2057 F100.00
G01 X23.0066 Y40.2196 F100.00
G01 X23.0031 Y40.2338 F100.00
G01 X23.0009 Y40.2484 F100.00
G01 X23.0001 Y40.2655 F100.00
G01 X23.0001 Y41.2106 F100.00
G01 X23.0009 Y41.2278 F100.00
G01 X23.0031 Y41.2423 F100.00
G01 X23.0066 Y41.2566 F100.00
G01 X23.0116 Y41.2704 F100.00
G01 X23.0179 Y41.2837 F100.00
G01 X23.0255 Y41.2963 F100.00
G01 X23.0342 Y41.3082 F100.00
G01 X23.0441 Y41.3191 F100.00
G01 X23.0550 Y41.3289 F100.00
G01 X23.0668 Y41.3377 F100.00
G01 X23.0794 Y41.3453 F100.00
G01 X23.0927 Y41.3515 F100.00
G01 X23.1066 Y41.3565 F100.00
G01 X23.1208 Y41.3601 F100.00
G01 X23.1354 Y41.3622 F100.00
G01 X23.1525 Y41.3631 F100.00
G01 X23.8226 Y41.3631 F100.00
G01 X23.8398 Y41.3622 F100.00
G01 X23.8543 Y41.3601 F100.00
G01 X23.8686 Y41.3565 F100.00
G01 X23.8824 Y41.3515 F100.00
G01 X23.8957 Y41.3453 F100.00
G01 X23.9083 Y41.3377 F100.00
G01 X23.9202 Y41.3289 F100.00
G01 X23.9311 Y41.3191 F100.00
G01 X23.9409 Y41.3082 F100.00
G01 X23.9497 Y41.2963 F100.00
G01 X23.9573 Y41.2837 F100.00
G01 X23.9635 Y41.2704 F100.00
G01 X23.9685 Y41.2566 F100.00
G01 X23.9721 Y41.2423 F100.00
G01 X23.9742 Y41.2278 F100.00
G01 X23.9751 Y41.2106 F100.00
G01 X23.9751 Y40.2655 F100.00
G01 X23.9742 Y40.2484 F100.00
G01 X23.9721 Y40.2338 F100.00
G01 X23.9685 Y40.2196 F100.00
G01 X23.9635 Y40.2057 F100.00
G01 X23.9573 Y40.1924 F100.00
G01 X23.9497 Y40.1798 F100.00
G01 X23.9409 Y40.1680 F100.00
G01 X23.9311 Y40.1571 F100.00
G01 X23.9202 Y40.1472 F100.00
G01 X23.9083 Y40.1385 F100.00
G01 X23.8957 Y40.1309 F100.00
G01 X23.8824 Y40.1246 F100.00
G01 X23.8686 Y40.1196 F100.00
G01 X23.8543 Y40.1161 F100.00
G01 X23.8398 Y40.1139 F100.00
G01 X23.8226 Y40.1131 F100.00
G01 X23.1525 Y40.1131 F100.00
G01 X23.1354 Y40.1139 F100.00
G01 X23.1208 Y40.1161 F100.00
G01 X23.1066 Y40.1196 F100.00
G01 X23.0927 Y40.1246 F100.00
G01 X23.2001 Y40.1131 F100.00
G01 X23.2001 Y41.3631 F100.00
G01 X23.4001 Y41.3631 F100.00
G01 X23.4001 Y40.1131 F100.00
G01 X23.6001 Y40.1131 F100.00
G01 X23.6001 Y41.3631 F100.00
G01 X23.8001 Y41.3631 F100.00
G01 X23.8001 Y40.1131 F100.00
G00 Z1.0000
G00 X24.7901 Y40.7601
G01 F100.00
G01 Z-0.1000
G01 F100.00
G01 X24.7901 Y37.1601 F100.00
G01 X24.7901 Y40.7601 F100.00
G01 X26.5901 Y40.7601 F100.00
G01 X26.5901 Y37.1601 F100.00
G01 X24.7901 Y37.1601 F100.00
G01 X24.9901 Y37.1601 F100.00
G01 X24.9901 Y40.7601 F100.00
G01 X25.1901 Y40.7601 F100.00
G01 X25.1901 Y37.1601 F100.00
G01 X25.3901 Y37.1601 F100.00
G01 X25.3901 Y40.7601 F100.00
G01 X25.5901 Y40.7601 F100.00
G01 X25.5901 Y37.1601 F100.00
G01 X25.7901 Y37.1601 F100.00
G01 X25.7901 Y40.7601 F100.00
G01 X25.9901 Y40.7601 F100.00
G01 X25.9901 Y37.1601 F100.00
G01 X26.1901 Y37.1601 F100.00
G01 X26.1901 Y40.7601 F100.00
G01 X26.3901 Y40.7601 F100.00
G01 X26.3901 Y37.1601 F100.00
G00 Z1.0000
G00 X31.0901 Y37.1101
G01 F100.00
G01 Z-0.1000
G01 F100.00
G01 X32.8901 Y37.1101 F100.00
G01 X32.8901 Y36.9101 F100.00
G01 X31.0901 Y36.9101 F100.00
G01 X31.0901 Y36.7101 F100.00
G01 X32.8901 Y36.7101 F100.00
G01 X32.8901 Y36.5101 F100.00
G01 X31.0901 Y36.5101 F100.00
G01 X31.0901 Y36.3101 F100.00
G01 X32.8901 Y36.3101 F100.00
G01 X32.8901 Y36.1101 F100.00
G01 X31.0901 Y36.1101 F100.00
G01 X31.0901 Y36.0101 F100.00
G01 X32.8901 Y36.0101 F100.00
G01 X32.8901 Y37.3101 F100.00
G01 X31.0901 Y37.3101 F100.00
G01 X31.0901 Y36.0101 F100.00
G00 Z1.0000
G00 X31.0901 Y38.3101
G01 F100.00
G01 Z-0.1000
G01 F100.00
G01 X31.0901 Y39.6101 F100.00
G01 X32.8901 Y39.6101 F100.00
G01 X32.8901 Y38.3101 F100.00
G01 X31.0901 Y38.3101 F100.00
G01 X31.0901 Y38.4101 F100.00
G01 X32.8901 Y38.4101 F100.00
G01 X32.8901 Y38.6101 F100.00
G01 X31.0901 Y38.6101 F100.00
G01 X31.0901 Y38.8101 F100.00
G01 X32.8901 Y38.8101 F100.00
G01 X32.8901 Y39.0101 F100.00
G01 X31.0901 Y39.0101 F100.00
G01 X31.0901 Y39.2101 F100.00
G01 X32.8901 Y39.2101 F100.00
G01 X32.8901 Y39.4101 F100.00
G01 X31.0901 Y39.4101 F100.00
G00 Z1.0000
G00 X31.0901 Y40.6101
G01 F100.00
G01 Z-0.1000
G01 F100.00
G01 X31.0901 Y41.9101 F100.00
G01 X32.8901 Y41.9101 F100.00
G01 X32.8901 Y40.6101 F100.00
G01 X31.0901 Y40.6101 F100.00
G01 X31.0901 Y40.7101 F100.00
G01 X32.8901 Y40.7101 F100.00
G01 X32.8901 Y40.9101 F100.00
G01 X31.0901 Y40.9101 F100.00
G01 X31.0901 Y41.1101 F100.00
G01 X32.8901 Y41.1101 F100.00
G01 X32.8901 Y41.3101 F100.00
G01 X31.0901 Y41.3101 F100.00
G01 X31.0901 Y41.5101 F100.00
G01 X32.8901 Y41.5101 F100.00
G01 X32.8901 Y41.7101 F100.00
G01 X31.0901 Y41.7101 F100.00
G00 Z1.0000
G00 X35.0177 Y40.8501
G01 F100.00
G01 Z-0.1000
G01 F100.00
G01 X35.7625 Y40.8501 F100.00
G01 X35.9888 Y41.0501 F100.00
G01 X34.7913 Y41.0501 F100.00
G01 X34.6841 Y41.2501 F100.00
G01 X36.0961 Y41.2501 F100.00
G01 X36.1375 Y41.4501 F100.00
G01 X34.6427 Y41.4501 F100.00
G01 X34.6555 Y41.6501 F100.00
G01 X36.1246 Y41.6501 F100.00
G01 X36.0531 Y41.8501 F100.00
G01 X34.7271 Y41.8501 F100.00
G01 X34.8816 Y42.0501 F100.00
G01 X35.8985 Y42.0501 F100.00
G01 X35.1031 Y40.8073 F100.00
G01 X35.0366 Y40.8387 F100.00
G01 X34.9735 Y40.8766 F100.00
G01 X34.9144 Y40.9204 F100.00
G01 X34.8598 Y40.9698 F100.00
G01 X34.8104 Y41.0244 F100.00
G01 X34.7666 Y41.0835 F100.00
G01 X34.7287 Y41.1466 F100.00
G01 X34.6973 Y41.2131 F100.00
G01 X34.6725 Y41.2824 F100.00
G01 X34.6546 Y41.3538 F100.00
G01 X34.6438 Y41.4266 F100.00
G01 X34.6402 Y41.5001 F100.00
G01 X34.6438 Y41.5736 F100.00
G01 X34.6546 Y41.6464 F100.00
G01 X34.6725 Y41.7178 F100.00
G01 X34.6973 Y41.7870 F100.00
G01 X34.7287 Y41.8536 F100.00
G01 X34.7666 Y41.9167 F100.00
G01 X34.8104 Y41.9758 F100.00
G01 X34.8598 Y42.0303 F100.00
G01 X34.9144 Y42.0797 F100.00
G01 X34.9735 Y42.1236 F100.00
G01 X35.0366 Y42.1614 F100.00
G01 X35.1031 Y42.1929 F100.00
G01 X35.1724 Y42.2177 F100.00
G01 X35.2438 Y42.2355 F100.00
G01 X35.3166 Y42.2463 F100.00
G01 X35.3901 Y42.2500 F100.00
G01 X35.4636 Y42.2463 F100.00
G01 X35.5364 Y42.2355 F100.00
G01 X35.6078 Y42.2177 F100.00
G01 X35.6770 Y42.1929 F100.00
G01 X35.7436 Y42.1614 F100.00
G01 X35.8067 Y42.1236 F100.00
G01 X35.8658 Y42.0797 F100.00
G01 X35.9203 Y42.0303 F100.00
G01 X35.9697 Y41.9758 F100.00
G01 X36.0136 Y41.9167 F100.00
G01 X36.0514 Y41.8536 F100.00
G01 X36.0829 Y41.7870 F100.00
G01 X36.1077 Y41.7178 F100.00
G01 X36.1255 Y41.6464 F100.00
G01 X36.1363 Y41.5736 F100.00
G01 X36.1400 Y41.5001 F100.00
G01 X36.1363 Y41.4266 F100.00
G01 X36.1255 Y41.3538 F100.00
G01 X36.1077 Y41.2824 F100.00
G01 X36.0829 Y41.2131 F100.00
G01 X36.0514 Y41.1466 F100.00
G01 X36.0136 Y41.0835 F100.00
G01 X35.9697 Y41.0244 F100.00
G01 X35.9203 Y40.9698 F100.00
G01 X35.8658 Y40.9204 F100.00
G01 X35.8067 Y40.8766 F100.00
G01 X35.7436 Y40.8387 F100.00
G01 X35.6770 Y40.8073 F100.00
G01 X35.6078 Y40.7825 F100.00
G01 X35.5364 Y40.7646 F100.00
G01 X35.4636 Y40.7538 F100.00
G01 X35.3901 Y40.7502 F100.00
G01 X35.3166 Y40.7538 F100.00
G01 X35.2438 Y40.7646 F100.00
G01 X35.1724 Y40.7825 F100.00
G01 X35.1031 Y40.8073 F100.00
G00 Z1.0000
G00 X34.7913 Y38.5101
G01 F100.00
G01 Z-0.1000
G01 F100.00
G01 X35.9888 Y38.5101 F100.00
G01 X36.0961 Y38.7101 F100.00
G01 X34.6841 Y38.7101 F100.00
G01 X34.6427 Y38.9101 F100.00
G01 X36.1375 Y38.9101 F100.00
G01 X36.1246 Y39.1101 F100.00
G01 X34.6555 Y39.1101 F100.00
G01 X34.7271 Y39.3101 F100.00
G01 X36.0531 Y39.3101 F100.00
G01 X35.8985 Y39.5101 F100.00
G01 X34.8816 Y39.5101 F100.00
G01 X35.0177 Y38.3101 F100.00
G01 X35.7625 Y38.3101 F100.00
G01 X35.1031 Y38.2673 F100.00
G01 X35.0366 Y38.2987 F100.00
G01 X34.9735 Y38.3366 F100.00
G01 X34.9144 Y38.3804 F100.00
G01 X34.8598 Y38.4298 F100.00
G01 X34.8104 Y38.4844 F100.00
G01 X34.7666 Y38.5435 F100.00
G01 X34.7287 Y38.6066 F100.00
G01 X34.6973 Y38.6731 F100.00
G01 X34.6725 Y38.7424 F100.00
G01 X34.6546 Y38.8138 F100.00
G01 X34.6438 Y38.8866 F100.00
G01 X34.6402 Y38.9601 F100.00
G01 X34.6438 Y39.0336 F100.00
G01 X34.6546 Y39.1064 F100.00
G01 X34.6725 Y39.1778 F100.00
G01 X34.6973 Y39.2470 F100.00
G01 X34.7287 Y39.3136 F100.00
G01 X34.7666 Y39.3767 F100.00
G01 X34.8104 Y39.4358 F100.00
G01 X34.8598 Y39.4903 F100.00
G01 X34.9144 Y39.5397 F100.00
G01 X34.9735 Y39.5836 F100.00
G01 X35.0366 Y39.6214 F100.00
G01 X35.1031 Y39.6529 F100.00
G01 X35.1724 Y39.6777 F100.00
G01 X35.2438 Y39.6955 F100.00
G01 X35.3166 Y39.7063 F100.00
G01 X35.3901 Y39.7100 F100.00
G01 X35.4636 Y39.7063 F100.00
G01 X35.5364 Y39.6955 F100.00
G01 X35.6078 Y39.6777 F100.00
G01 X35.6770 Y39.6529 F100.00
G01 X35.7436 Y39.6214 F100.00
G01 X35.8067 Y39.5836 F100.00
G01 X35.8658 Y39.5397 F100.00
G01 X35.9203 Y39.4903 F100.00
G01 X35.9697 Y39.4358 F100.00
G01 X36.0136 Y39.3767 F100.00
G01 X36.0514 Y39.3136 F100.00
G01 X36.0829 Y39.2470 F100.00
G01 X36.1077 Y39.1778 F100.00
G01 X36.1255 Y39.1064 F100.00
G01 X36.1363 Y39.0336 F100.00
G01 X36.1400 Y38.9601 F100.00
G01 X36.1363 Y38.8866 F100.00
G01 X36.1255 Y38.8138 F100.00
G01 X36.1077 Y38.7424 F100.00
G01 X36.0829 Y38.6731 F100.00
G01 X36.0514 Y38.6066 F100.00
G01 X36.0136 Y38.5435 F100.00
G01 X35.9697 Y38.4844 F100.00
G01 X35.9203 Y38.4298 F100.00
G01 X35.8658 Y38.3804 F100.00
G01 X35.8067 Y38.3366 F100.00
G01 X35.7436 Y38.2987 F100.00
G01 X35.6770 Y38.2673 F100.00
G01 X35.6078 Y38.2425 F100.00
G01 X35.5364 Y38.2246 F100.00
G01 X35.4636 Y38.2138 F100.00
G01 X35.3901 Y38.2102 F100.00
G01 X35.3166 Y38.2138 F100.00
G01 X35.2438 Y38.2246 F100.00
G01 X35.1724 Y38.2425 F100.00
G01 X35.1031 Y38.2673 F100.00
G00 Z1.0000
G00 X36.1401 Y36.9701
G01 F100.00
G01 Z-0.1000
G01 F100.00
G01 X34.6401 Y36.9701 F100.00
G01 X34.6401 Y36.7701 F100.00
G01 X36.1401 Y36.7701 F100.00
G01 X36.1401 Y36.5701 F100.00
G01 X34.6401 Y36.5701 F100.00
G01 X34.6401 Y36.3701 F100.00
G01 X36.1401 Y36.3701 F100.00
G01 X36.1401 Y36.1701 F100.00
G01 X34.6401 Y36.1701 F100.00
G01 X34.6401 Y35.9701 F100.00
G01 X36.1401 Y35.9701 F100.00
G01 X36.1401 Y35.7701 F100.00
G01 X34.6401 Y35.7701 F100.00
G01 X34.6401 Y35.6701 F100.00
G01 X36.1401 Y35.6701 F100.00
G01 X36.1401 Y37.1701 F100.00
G01 X34.6401 Y37.1701 F100.00
G01 X34.6401 Y35.6701 F100.00
G00 Z1.0000
G00 X21.7251 Y40.1131
G01 F100.00
G01 Z-0.1000
G01 F100.00
G01 X21.7251 Y41.3631 F100.00
G01 X21.5251 Y41.3631 F100.00
G01 X21.5251 Y40.1131 F100.00
G01 X21.3251 Y40.1131 F100.00
G01 X21.3251 Y41.3631 F100.00
G01 X21.1251 Y41.3631 F100.00
G01 X21.1251 Y40.1131 F100.00
G01 X21.0177 Y40.1246 F100.00
G01 X21.0316 Y40.1196 F100.00
G01 X21.0458 Y40.1161 F100.00
G01 X21.0604 Y40.1139 F100.00
G01 X21.0775 Y40.1131 F100.00
G01 X21.7476 Y40.1131 F100.00
G01 X21.7648 Y40.1139 F100.00
G01 X21.7793 Y40.1161 F100.00
G01 X21.7936 Y40.1196 F100.00
G01 X21.8074 Y40.1246 F100.00
G01 X21.8207 Y40.1309 F100.00
G01 X21.8333 Y40.1385 F100.00
G01 X21.8452 Y40.1472 F100.00
G01 X21.8561 Y40.1571 F100.00
G01 X21.8659 Y40.1680 F100.00
G01 X21.8747 Y40.1798 F100.00
G01 X21.8823 Y40.1924 F100.00
G01 X21.8885 Y40.2057 F100.00
G01 X21.8935 Y40.2196 F100.00
G01 X21.8971 Y40.2338 F100.00
G01 X21.8992 Y40.2484 F100.00
G01 X21.9001 Y40.2655 F100.00
G01 X21.9001 Y41.2106 F100.00
G01 X21.8992 Y41.2278 F100.00
G01 X21.8971 Y41.2423 F100.00
G01 X21.8935 Y41.2566 F100.00
G01 X21.8885 Y41.2704 F100.00
G01 X21.8823 Y41.2837 F100.00
G01 X21.8747 Y41.2963 F100.00
G01 X21.8659 Y41.3082 F100.00
G01 X21.8561 Y41.3191 F100.00
G01 X21.8452 Y41.3289 F100.00
G01 X21.8333 Y41.3377 F100.00
G01 X21.8207 Y41.3453 F100.00
G01 X21.8074 Y41.3515 F100.00
G01 X21.7936 Y41.3565 F100.00
G01 X21.7793 Y41.3601 F100.00
G01 X21.7648 Y41.3622 F100.00
G01 X21.7476 Y41.3631 F100.00
G01 X21.0775 Y41.3631 F100.00
G01 X21.0604 Y41.3622 F100.00
G01 X21.0458 Y41.3601 F100.00
G01 X21.0316 Y41.3565 F100.00
G01 X21.0177 Y41.3515 F100.00
G01 X21.0044 Y41.3453 F100.00
G01 X20.9918 Y41.3377 F100.00
G01 X20.9800 Y41.3289 F100.00
G01 X20.9691 Y41.3191 F100.00
G01 X20.9592 Y41.3082 F100.00
G01 X20.9505 Y41.2963 F100.00
G01 X20.9429 Y41.2837 F100.00
G01 X20.9366 Y41.2704 F100.00
G01 X20.9316 Y41.2566 F100.00
G01 X20.9281 Y41.2423 F100.00
G01 X20.9259 Y41.2278 F100.00
G01 X20.9251 Y41.2106 F100.00
G01 X20.9251 Y40.2655 F100.00
G01 X20.9259 Y40.2484 F100.00
G01 X20.9281 Y40.2338 F100.00
G01 X20.9316 Y40.2196 F100.00
G01 X20.9366 Y40.2057 F100.00
G01 X20.9429 Y40.1924 F100.00
G01 X20.9505 Y40.1798 F100.00
G01 X20.9592 Y40.1680 F100.00
G01 X20.9691 Y40.1571 F100.00
G01 X20.9800 Y40.1472 F100.00
G01 X20.9918 Y40.1385 F100.00
G01 X21.0044 Y40.1309 F100.00
G01 X21.0177 Y40.1246 F100.00
G00 Z1.0000
M05
G00 Z1.0000
G00 Z1.00
G00 X20.0 Y35.0


