(G-CODE GENERATED BY FLATCAM v8.994 - www.flatcam.org - Version Date: 2020/11/7)

(Name: F_0x0_Mask_Mask.nc)
(Type: G-code from Geometry)
(Units: MM)

(Created on Friday, 31 October 2025 at 16:13)

(This preprocessor is used with a motion controller loaded with GRBL firmware.)
(It is configured to be compatible with almost any version of GRBL firmware.)

(TOOL DIAMETER: 0.2 mm)
(Feedrate_XY: 100.0 mm/min)
(Feedrate_Z: 100.0 mm/min)
(Feedrate rapids 1500.0 mm/min)

(Z_Cut: -0.1 mm)
(Z_Move: 1.0 mm)
(Z Start: None mm)
(Z End: 1.0 mm)
(X,Y End: 20.0000, 35.0000 mm)
(Steps per circle: 64)
(Steps per circle: 64)
(Preprocessor Geometry: GRBL_11_no_M6)

(X range:   19.7001 ...   20.2999  mm)
(Y range:   34.7001 ...   35.2999  mm)

(Spindle Speed: 10000 RPM)
G21
G90
G17
G94


G01 F100.00
G00 Z1.0000

M03 S10000
G4 P3.0
G00 X19.7177 Y34.9000
G01 F100.00
G01 Z-0.1000
G01 F100.00
G01 X20.2823 Y34.9000 F100.00
G01 X20.2999 Y35.0000 F100.00
G01 X20.2984 Y34.9706 F100.00
G01 X20.2941 Y34.9415 F100.00
G01 X20.2870 Y34.9130 F100.00
G01 X20.2770 Y34.8852 F100.00
G01 X20.2645 Y34.8586 F100.00
G01 X20.2493 Y34.8334 F100.00
G01 X20.2318 Y34.8098 F100.00
G01 X20.2120 Y34.7880 F100.00
G01 X20.1902 Y34.7682 F100.00
G01 X20.1666 Y34.7507 F100.00
G01 X20.1414 Y34.7355 F100.00
G01 X20.1148 Y34.7230 F100.00
G01 X20.0870 Y34.7130 F100.00
G01 X20.0585 Y34.7059 F100.00
G01 X20.0294 Y34.7016 F100.00
G01 X20.0000 Y34.7001 F100.00
G01 X19.9706 Y34.7016 F100.00
G01 X19.9415 Y34.7059 F100.00
G01 X19.9130 Y34.7130 F100.00
G01 X19.8852 Y34.7230 F100.00
G01 X19.8586 Y34.7355 F100.00
G01 X19.8334 Y34.7507 F100.00
G01 X19.8098 Y34.7682 F100.00
G01 X19.7880 Y34.7880 F100.00
G01 X19.7682 Y34.8098 F100.00
G01 X19.7507 Y34.8334 F100.00
G01 X19.7355 Y34.8586 F100.00
G01 X19.7230 Y34.8852 F100.00
G01 X19.7130 Y34.9130 F100.00
G01 X19.7059 Y34.9415 F100.00
G01 X19.7016 Y34.9706 F100.00
G01 X19.7001 Y35.0000 F100.00
G01 X19.7016 Y35.0294 F100.00
G01 X19.7059 Y35.0585 F100.00
G01 X19.7130 Y35.0870 F100.00
G01 X19.7230 Y35.1148 F100.00
G01 X19.7355 Y35.1414 F100.00
G01 X19.7507 Y35.1666 F100.00
G01 X19.7682 Y35.1902 F100.00
G01 X19.7880 Y35.2120 F100.00
G01 X19.8098 Y35.2318 F100.00
G01 X19.8334 Y35.2493 F100.00
G01 X19.8586 Y35.2645 F100.00
G01 X19.8852 Y35.2770 F100.00
G01 X19.9130 Y35.2870 F100.00
G01 X19.9415 Y35.2941 F100.00
G01 X19.9706 Y35.2984 F100.00
G01 X20.0000 Y35.2999 F100.00
G01 X20.0294 Y35.2984 F100.00
G01 X20.0585 Y35.2941 F100.00
G01 X20.0870 Y35.2870 F100.00
G01 X20.1148 Y35.2770 F100.00
G01 X20.1414 Y35.2645 F100.00
G01 X20.1666 Y35.2493 F100.00
G01 X20.1902 Y35.2318 F100.00
G01 X20.2120 Y35.2120 F100.00
G01 X20.2318 Y35.1902 F100.00
G01 X20.2493 Y35.1666 F100.00
G01 X20.2645 Y35.1414 F100.00
G01 X20.2770 Y35.1148 F100.00
G01 X20.2870 Y35.0870 F100.00
G01 X20.2941 Y35.0585 F100.00
G01 X20.2984 Y35.0294 F100.00
G01 X20.2999 Y35.0000 F100.00
G01 X20.2823 Y35.1000 F100.00
G01 X19.7177 Y35.1000 F100.00
G00 Z1.0000
M05
G00 Z1.0000
G00 Z1.00
G00 X20.0 Y35.0


