(G-CODE GENERATED BY FLATCAM v8.994 - www.flatcam.org - Version Date: 2020/11/7)

(Name: F_Edge_Cuts_Clearance_Mask.nc)
(Type: G-code from Geometry)
(Units: MM)

(Created on Friday, 31 October 2025 at 16:13)

(This preprocessor is used with a motion controller loaded with GRBL firmware.)
(It is configured to be compatible with almost any version of GRBL firmware.)

(TOOL DIAMETER: 0.2 mm)
(Feedrate_XY: 100.0 mm/min)
(Feedrate_Z: 100.0 mm/min)
(Feedrate rapids 1500.0 mm/min)

(Z_Cut: -0.1 mm)
(Z_Move: 1.0 mm)
(Z Start: None mm)
(Z End: 1.0 mm)
(X,Y End: 20.0000, 35.0000 mm)
(Steps per circle: 64)
(Steps per circle: 64)
(Preprocessor Geometry: GRBL_11_no_M6)

(X range:   20.0000 ...   36.8101  mm)
(Y range:   35.0000 ...   42.9201  mm)

(Spindle Speed: 10000 RPM)
G21
G90
G17
G94


G01 F100.00
G00 Z1.0000

M03 S10000
G4 P3.0
G00 X20.0000 Y35.1501
G01 F100.00
G01 Z-0.1000
G01 F100.00
G01 X20.0007 Y35.1354 F100.00
G01 X20.0029 Y35.1208 F100.00
G01 X20.0065 Y35.1065 F100.00
G01 X20.0114 Y35.0926 F100.00
G01 X20.0177 Y35.0793 F100.00
G01 X20.0253 Y35.0667 F100.00
G01 X20.0341 Y35.0549 F100.00
G01 X20.0440 Y35.0440 F100.00
G01 X20.0549 Y35.0341 F100.00
G01 X20.0667 Y35.0253 F100.00
G01 X20.0793 Y35.0177 F100.00
G01 X20.0926 Y35.0114 F100.00
G01 X20.1065 Y35.0065 F100.00
G01 X20.1208 Y35.0029 F100.00
G01 X20.1354 Y35.0007 F100.00
G01 X20.1501 Y35.0000 F100.00
G01 X36.6601 Y35.0000 F100.00
G01 X36.6748 Y35.0007 F100.00
G01 X36.6894 Y35.0029 F100.00
G01 X36.7036 Y35.0065 F100.00
G01 X36.7175 Y35.0114 F100.00
G01 X36.7308 Y35.0177 F100.00
G01 X36.7435 Y35.0253 F100.00
G01 X36.7553 Y35.0341 F100.00
G01 X36.7662 Y35.0440 F100.00
G01 X36.7761 Y35.0549 F100.00
G01 X36.7849 Y35.0667 F100.00
G01 X36.7924 Y35.0793 F100.00
G01 X36.7987 Y35.0926 F100.00
G01 X36.8037 Y35.1065 F100.00
G01 X36.8073 Y35.1208 F100.00
G01 X36.8094 Y35.1354 F100.00
G01 X36.8101 Y35.1501 F100.00
G01 X36.8101 Y42.7701 F100.00
G01 X36.8094 Y42.7848 F100.00
G01 X36.8073 Y42.7994 F100.00
G01 X36.8037 Y42.8136 F100.00
G01 X36.7987 Y42.8275 F100.00
G01 X36.7924 Y42.8408 F100.00
G01 X36.7849 Y42.8535 F100.00
G01 X36.7761 Y42.8653 F100.00
G01 X36.7662 Y42.8762 F100.00
G01 X36.7553 Y42.8861 F100.00
G01 X36.7435 Y42.8949 F100.00
G01 X36.7308 Y42.9024 F100.00
G01 X36.7175 Y42.9087 F100.00
G01 X36.7036 Y42.9137 F100.00
G01 X36.6894 Y42.9173 F100.00
G01 X36.6748 Y42.9194 F100.00
G01 X36.6601 Y42.9201 F100.00
G01 X20.1501 Y42.9201 F100.00
G01 X20.1354 Y42.9194 F100.00
G01 X20.1208 Y42.9173 F100.00
G01 X20.1065 Y42.9137 F100.00
G01 X20.0926 Y42.9087 F100.00
G01 X20.0793 Y42.9024 F100.00
G01 X20.0667 Y42.8949 F100.00
G01 X20.0549 Y42.8861 F100.00
G01 X20.0440 Y42.8762 F100.00
G01 X20.0341 Y42.8653 F100.00
G01 X20.0253 Y42.8535 F100.00
G01 X20.0177 Y42.8408 F100.00
G01 X20.0114 Y42.8275 F100.00
G01 X20.0065 Y42.8136 F100.00
G01 X20.0029 Y42.7994 F100.00
G01 X20.0007 Y42.7848 F100.00
G01 X20.0000 Y42.7701 F100.00
G01 X20.0000 Y35.1501 F100.00
G00 Z1.0000
M05
G00 Z1.0000
G00 Z1.00
G00 X20.0 Y35.0


