(G-CODE GENERATED BY FLATCAM v8.994 - www.flatcam.org - Version Date: 2020/11/7)

(Name: Back_Height_Map.nc)
(Type: G-code from Geometry)
(Units: MM)

(Created on Friday, 31 October 2025 at 16:13)

(This preprocessor is used with a motion controller loaded with GRBL firmware.)
(It is configured to be compatible with almost any version of GRBL firmware.)

(TOOL DIAMETER: 0.3 mm)
(Feedrate_XY: 120.0 mm/min)
(Feedrate_Z: 60.0 mm/min)
(Feedrate rapids 1500.0 mm/min)

(Z_Cut: -1.0 mm)
(Z_Move: 1.0 mm)
(Z Start: None mm)
(Z End: 1.0 mm)
(X,Y End: 190.2065, 35.0000 mm)
(Steps per circle: 64)
(Steps per circle: 64)
(Preprocessor Geometry: GRBL_11_no_M6)

(X range:   19.9000 ...   36.9101  mm)
(Y range:   34.9000 ...   43.0201  mm)

(Spindle Speed: None RPM)
G21
G90
G17
G94


  (Move to maintenance position)
 G21 G90 G53 F200 Z-1
 G21 G90 G17 F200 X181.80142506248126
 G21 G90 G53 F200 Y0 Z-1
				G17
				
  (########## ACTION ##########)
 (Fix the PCB flipped horizontally to the bottom right corner)
 M0
 
   (Move to maintenance position)
 G21 G90 G53 F200 Z-1
 G21 G90 G17 F200 X181.80142506248126
 G21 G90 G53 F200 Y0 Z-1
				G17
				
				 (########## ACTION ##########)
 (Insert 0.3mm isolation bit)
 M0
 
 
  (Move to PCB Back 0x0)
 G21 G90 X190.2065 Y35 F200
 
				 (########## ACTION ##########)
 (Connect probe to PCB)
 M0
 
 (Z Probe)
 G21 G90 G53 Z-12
 G91 G21
 G38.2 Z-35 F10
 G92 Z0
 G90
 G0 Z1

				
 
  (########## ACTION ##########)
 (ABORT NOW: Create & save the back height map)
 M0
 
				M0
 M0
 M0
 M0
 M0
 M0
 M0
 M0
 M0
 M0
 M0
 M0
 
G01 F120.00
G00 Z1.0000

M03
G4 P1.0
G00 X190.3065 Y34.9000
G01 F60.00
G01 Z-1.0000
G01 F120.00
G01 X173.2964 Y34.9000 F120.00
G01 X173.2964 Y43.0201 F120.00
G01 X190.3065 Y43.0201 F120.00
G01 X190.3065 Y34.9000 F120.00
G00 Z1.0000
M05
G00 Z1.0000
G00 Z1.00
G00 X190.2065 Y35.0


