(G-CODE GENERATED BY FLATCAM v8.994 - www.flatcam.org - Version Date: 2020/11/7)

(Name: B_Cu_Isolate.nc)
(Type: G-code from Geometry)
(Units: MM)

(Created on Friday, 31 October 2025 at 16:13)

(This preprocessor is used with a motion controller loaded with GRBL firmware.)
(It is configured to be compatible with almost any version of GRBL firmware.)

(TOOL DIAMETER: 0.3 mm)
(Feedrate_XY: 11.339999999999998 mm/min)
(Feedrate_Z: 15.4 mm/min)
(Feedrate rapids 1500.0 mm/min)

(Z_Cut: -0.15 mm)
(Z_Move: 1.0 mm)
(Z Start: None mm)
(Z End: 1.0 mm)
(X,Y End: 190.2065, 35.0000 mm)
(Steps per circle: 64)
(Steps per circle: 64)
(Preprocessor Geometry: GRBL_11_no_M6)

(X range:  173.8164 ...  189.5984  mm)
(Y range:   35.4201 ...   42.5001  mm)

(Spindle Speed: 10000 RPM)
G21
G90
G17
G94


  (########## ACTION ##########)
 (Confirm back height map is loaded and enabled)
 M0
 
  (########## ACTION ##########)
 (Disconnect probe)
 M0
 
 
G01 F11.34
G00 Z1.0000

M03 S10000
G4 P3.0
G00 X174.5434 Y40.2158
G01 F15.40
G01 Z-0.1500
G01 F11.34
G01 X174.4537 Y40.2427 F11.34
G01 X174.4465 Y40.2447 F11.34
G01 X174.4355 Y40.2469 F11.34
G01 X174.4207 Y40.2487 F11.34
G01 X174.3323 Y40.2546 F11.34
G01 X174.3173 Y40.2549 F11.34
G01 X174.3062 Y40.2541 F11.34
G01 X174.2951 Y40.2525 F11.34
G01 X174.2841 Y40.2500 F11.34
G01 X174.2734 Y40.2468 F11.34
G01 X174.1842 Y40.2112 F11.34
G01 X174.1739 Y40.2066 F11.34
G01 X174.1609 Y40.1993 F11.34
G01 X174.1516 Y40.1931 F11.34
G01 X174.1428 Y40.1861 F11.34
G01 X174.1345 Y40.1785 F11.34
G01 X174.0671 Y40.1050 F11.34
G01 X174.0601 Y40.0962 F11.34
G01 X174.0557 Y40.0901 F11.34
G01 X174.0517 Y40.0838 F11.34
G01 X174.0463 Y40.0740 F11.34
G01 X174.0417 Y40.0638 F11.34
G01 X174.0390 Y40.0568 F11.34
G01 X174.0112 Y39.9649 F11.34
G01 X174.0085 Y39.9546 F11.34
G01 X174.0066 Y39.9443 F11.34
G01 X174.0054 Y39.9338 F11.34
G01 X174.0044 Y39.9084 F11.34
G01 X174.0044 Y39.5422 F11.34
G01 X173.9892 Y39.5217 F11.34
G01 X173.9829 Y39.5126 F11.34
G01 X173.9381 Y39.4379 F11.34
G01 X173.9328 Y39.4282 F11.34
G01 X173.8925 Y39.3428 F11.34
G01 X173.8606 Y39.2539 F11.34
G01 X173.8575 Y39.2433 F11.34
G01 X173.8356 Y39.1552 F11.34
G01 X173.8221 Y39.0654 F11.34
G01 X173.8207 Y39.0507 F11.34
G01 X173.8166 Y38.9674 F11.34
G01 X173.8165 Y38.9564 F11.34
G01 X173.8212 Y38.8621 F11.34
G01 X173.8344 Y38.7722 F11.34
G01 X173.8373 Y38.7578 F11.34
G01 X173.8575 Y38.6769 F11.34
G01 X173.8606 Y38.6663 F11.34
G01 X173.8925 Y38.5774 F11.34
G01 X173.9328 Y38.4919 F11.34
G01 X173.9381 Y38.4823 F11.34
G01 X173.9829 Y38.4076 F11.34
G01 X173.9892 Y38.3985 F11.34
G01 X174.0044 Y38.3779 F11.34
G01 X174.0044 Y38.0776 F11.34
G01 X174.0048 Y38.0664 F11.34
G01 X174.0061 Y38.0552 F11.34
G01 X174.0074 Y38.0479 F11.34
G01 X174.0279 Y37.9579 F11.34
G01 X174.0308 Y37.9470 F11.34
G01 X174.0345 Y37.9364 F11.34
G01 X174.0390 Y37.9261 F11.34
G01 X174.0442 Y37.9162 F11.34
G01 X174.0481 Y37.9098 F11.34
G01 X174.0546 Y37.9007 F11.34
G01 X174.1144 Y37.8256 F11.34
G01 X174.1246 Y37.8146 F11.34
G01 X174.1358 Y37.8047 F11.34
G01 X174.1480 Y37.7960 F11.34
G01 X174.1609 Y37.7885 F11.34
G01 X174.2473 Y37.7469 F11.34
G01 X174.2573 Y37.7428 F11.34
G01 X174.2642 Y37.7405 F11.34
G01 X174.2746 Y37.7376 F11.34
G01 X174.2852 Y37.7355 F11.34
G01 X174.3400 Y37.7292 F11.34
G01 X174.3534 Y37.7286 F11.34
G01 X175.6965 Y37.7286 F11.34
G01 X175.7861 Y37.7168 F11.34
G01 X175.8977 Y37.6706 F11.34
G01 X175.9934 Y37.5971 F11.34
G01 X176.0669 Y37.5013 F11.34
G01 X176.1131 Y37.3898 F11.34
G01 X176.1249 Y37.3001 F11.34
G01 X176.1249 Y35.9571 F11.34
G01 X176.1257 Y35.9421 F11.34
G01 X176.1279 Y35.9274 F11.34
G01 X176.1493 Y35.8337 F11.34
G01 X176.1537 Y35.8194 F11.34
G01 X176.1595 Y35.8056 F11.34
G01 X176.1666 Y35.7925 F11.34
G01 X176.1751 Y35.7802 F11.34
G01 X176.2349 Y35.7051 F11.34
G01 X176.2451 Y35.6941 F11.34
G01 X176.2534 Y35.6866 F11.34
G01 X176.2623 Y35.6797 F11.34
G01 X176.2748 Y35.6716 F11.34
G01 X176.2848 Y35.6663 F11.34
G01 X176.3678 Y35.6264 F11.34
G01 X176.3778 Y35.6223 F11.34
G01 X176.3881 Y35.6189 F11.34
G01 X176.3986 Y35.6163 F11.34
G01 X176.4093 Y35.6145 F11.34
G01 X176.4605 Y35.6087 F11.34
G01 X176.4739 Y35.6081 F11.34
G01 X189.2532 Y35.6081 F11.34
G01 X189.2644 Y35.6088 F11.34
G01 X189.2791 Y35.6110 F11.34
G01 X189.3691 Y35.6315 F11.34
G01 X189.3800 Y35.6344 F11.34
G01 X189.3940 Y35.6396 F11.34
G01 X189.4075 Y35.6460 F11.34
G01 X189.4203 Y35.6538 F11.34
G01 X189.4293 Y35.6605 F11.34
G01 X189.5014 Y35.7181 F11.34
G01 X189.5124 Y35.7283 F11.34
G01 X189.5175 Y35.7337 F11.34
G01 X189.5246 Y35.7424 F11.34
G01 X189.5330 Y35.7548 F11.34
G01 X189.5402 Y35.7679 F11.34
G01 X189.5801 Y35.8510 F11.34
G01 X189.5842 Y35.8610 F11.34
G01 X189.5876 Y35.8713 F11.34
G01 X189.5902 Y35.8818 F11.34
G01 X189.5920 Y35.8924 F11.34
G01 X189.5978 Y35.9436 F11.34
G01 X189.5984 Y35.9571 F11.34
G01 X189.5982 Y41.9706 F11.34
G01 X189.5973 Y41.9817 F11.34
G01 X189.5955 Y41.9928 F11.34
G01 X189.5750 Y42.0828 F11.34
G01 X189.5721 Y42.0936 F11.34
G01 X189.5669 Y42.1077 F11.34
G01 X189.5622 Y42.1179 F11.34
G01 X189.5547 Y42.1308 F11.34
G01 X189.5460 Y42.1429 F11.34
G01 X189.4884 Y42.2151 F11.34
G01 X189.4782 Y42.2260 F11.34
G01 X189.4728 Y42.2311 F11.34
G01 X189.4641 Y42.2382 F11.34
G01 X189.4517 Y42.2467 F11.34
G01 X189.4386 Y42.2538 F11.34
G01 X189.3555 Y42.2938 F11.34
G01 X189.3455 Y42.2979 F11.34
G01 X189.3352 Y42.3012 F11.34
G01 X189.3247 Y42.3038 F11.34
G01 X189.3141 Y42.3057 F11.34
G01 X189.2629 Y42.3115 F11.34
G01 X189.2494 Y42.3121 F11.34
G01 X176.4082 Y42.3121 F11.34
G01 X176.3970 Y42.3117 F11.34
G01 X176.3858 Y42.3104 F11.34
G01 X176.3748 Y42.3083 F11.34
G01 X176.2848 Y42.2877 F11.34
G01 X176.2705 Y42.2833 F11.34
G01 X176.2567 Y42.2775 F11.34
G01 X176.2436 Y42.2704 F11.34
G01 X176.2312 Y42.2619 F11.34
G01 X176.1591 Y42.2044 F11.34
G01 X176.1478 Y42.1945 F11.34
G01 X176.1401 Y42.1864 F11.34
G01 X176.1308 Y42.1747 F11.34
G01 X176.1227 Y42.1621 F11.34
G01 X176.1174 Y42.1522 F11.34
G01 X176.0790 Y42.0724 F11.34
G01 X176.0732 Y42.0587 F11.34
G01 X176.0698 Y42.0480 F11.34
G01 X176.0671 Y42.0371 F11.34
G01 X176.0653 Y42.0260 F11.34
G01 X176.0643 Y42.0148 F11.34
G01 X176.0642 Y41.9188 F11.34
G01 X176.0649 Y41.9040 F11.34
G01 X176.0671 Y41.8893 F11.34
G01 X176.0710 Y41.8732 F11.34
G01 X176.1062 Y41.7461 F11.34
G01 X176.1290 Y41.5322 F11.34
G01 X176.1166 Y41.3173 F11.34
G01 X176.0693 Y41.1074 F11.34
G01 X175.9884 Y40.9081 F11.34
G01 X175.8760 Y40.7246 F11.34
G01 X175.7351 Y40.5620 F11.34
G01 X175.5695 Y40.4245 F11.34
G01 X175.3838 Y40.3160 F11.34
G01 X175.1827 Y40.2392 F11.34
G01 X174.9719 Y40.1963 F11.34
G01 X174.7569 Y40.1884 F11.34
G01 X174.5434 Y40.2158 F11.34
G00 Z1.0000
G00 X174.6922 Y40.1967
G01 F15.40
G01 Z-0.1500
G01 F11.34
G01 X174.5434 Y40.2158 F11.34
G01 X174.4537 Y40.2427 F11.34
G01 X174.4465 Y40.2447 F11.34
G01 X174.4355 Y40.2469 F11.34
G01 X174.4207 Y40.2487 F11.34
G01 X174.3980 Y40.2502 F11.34
G01 X174.4207 Y40.2487 F11.34
G01 X174.4355 Y40.2469 F11.34
G01 X174.4465 Y40.2447 F11.34
G01 X174.4537 Y40.2427 F11.34
G01 X174.5434 Y40.2158 F11.34
G00 Z1.0000
G00 X175.1922 Y40.5735
G01 F15.40
G01 Z-0.1500
G01 F11.34
G01 X175.2058 Y40.5792 F11.34
G01 X175.2878 Y40.6182 F11.34
G01 X175.3720 Y40.6686 F11.34
G01 X175.4508 Y40.7271 F11.34
G01 X175.5235 Y40.7930 F11.34
G01 X175.5894 Y40.8657 F11.34
G01 X175.6479 Y40.9445 F11.34
G01 X175.6983 Y41.0287 F11.34
G01 X175.7403 Y41.1174 F11.34
G01 X175.7734 Y41.2098 F11.34
G01 X175.7972 Y41.3050 F11.34
G01 X175.8116 Y41.4021 F11.34
G01 X175.8164 Y41.5001 F11.34
G01 X175.8116 Y41.5981 F11.34
G01 X175.7972 Y41.6952 F11.34
G01 X175.7734 Y41.7904 F11.34
G01 X175.7403 Y41.8828 F11.34
G01 X175.6983 Y41.9715 F11.34
G01 X175.6479 Y42.0556 F11.34
G01 X175.5894 Y42.1345 F11.34
G01 X175.5235 Y42.2072 F11.34
G01 X175.4508 Y42.2731 F11.34
G01 X175.3720 Y42.3315 F11.34
G01 X175.2878 Y42.3820 F11.34
G01 X175.1991 Y42.4240 F11.34
G01 X175.1067 Y42.4570 F11.34
G01 X175.0115 Y42.4809 F11.34
G01 X174.9144 Y42.4953 F11.34
G01 X174.8164 Y42.5001 F11.34
G01 X174.7184 Y42.4953 F11.34
G01 X174.6213 Y42.4809 F11.34
G01 X174.5261 Y42.4570 F11.34
G01 X174.4337 Y42.4240 F11.34
G01 X174.3450 Y42.3820 F11.34
G01 X174.2609 Y42.3315 F11.34
G01 X174.1820 Y42.2731 F11.34
G01 X174.1093 Y42.2072 F11.34
G01 X174.0434 Y42.1345 F11.34
G01 X173.9850 Y42.0556 F11.34
G01 X173.9345 Y41.9715 F11.34
G01 X173.8925 Y41.8828 F11.34
G01 X173.8595 Y41.7904 F11.34
G01 X173.8356 Y41.6952 F11.34
G01 X173.8212 Y41.5981 F11.34
G01 X173.8164 Y41.5001 F11.34
G01 X173.8212 Y41.4021 F11.34
G01 X173.8356 Y41.3050 F11.34
G01 X173.8595 Y41.2098 F11.34
G01 X173.8925 Y41.1174 F11.34
G01 X173.9345 Y41.0287 F11.34
G01 X173.9850 Y40.9445 F11.34
G01 X174.0434 Y40.8657 F11.34
G01 X174.1093 Y40.7930 F11.34
G01 X174.1820 Y40.7271 F11.34
G01 X174.2609 Y40.6686 F11.34
G01 X174.3450 Y40.6182 F11.34
G01 X174.4337 Y40.5762 F11.34
G01 X174.5261 Y40.5431 F11.34
G01 X174.6213 Y40.5193 F11.34
G01 X174.7184 Y40.5049 F11.34
G01 X174.8164 Y40.5001 F11.34
G01 X174.9144 Y40.5049 F11.34
G01 X175.0115 Y40.5193 F11.34
G01 X175.1067 Y40.5431 F11.34
G01 X175.1922 Y40.5735 F11.34
G00 Z1.0000
G00 X175.0493 Y40.5287
G01 F15.40
G01 Z-0.1500
G01 F11.34
G01 X175.1067 Y40.5431 F11.34
G01 X175.1922 Y40.5735 F11.34
G01 X175.2058 Y40.5792 F11.34
G01 X175.2878 Y40.6182 F11.34
G01 X175.3260 Y40.6410 F11.34
G01 X175.2878 Y40.6182 F11.34
G01 X175.2058 Y40.5792 F11.34
G01 X175.1922 Y40.5735 F11.34
G00 Z1.0000
G00 X175.6664 Y35.4201
G01 F15.40
G01 Z-0.1500
G01 F11.34
G01 X175.6775 Y35.4205 F11.34
G01 X175.6921 Y35.4223 F11.34
G01 X175.7064 Y35.4255 F11.34
G01 X175.7204 Y35.4301 F11.34
G01 X175.7339 Y35.4361 F11.34
G01 X175.7467 Y35.4433 F11.34
G01 X175.7587 Y35.4518 F11.34
G01 X175.7699 Y35.4614 F11.34
G01 X175.7800 Y35.4721 F11.34
G01 X175.7891 Y35.4837 F11.34
G01 X175.7969 Y35.4961 F11.34
G01 X175.8020 Y35.5059 F11.34
G01 X175.8077 Y35.5195 F11.34
G01 X175.8119 Y35.5336 F11.34
G01 X175.8148 Y35.5481 F11.34
G01 X175.8162 Y35.5627 F11.34
G01 X175.8164 Y37.2738 F11.34
G01 X175.8153 Y37.2884 F11.34
G01 X175.8135 Y37.2993 F11.34
G01 X175.8110 Y37.3101 F11.34
G01 X175.8064 Y37.3241 F11.34
G01 X175.8020 Y37.3342 F11.34
G01 X175.7951 Y37.3472 F11.34
G01 X175.7869 Y37.3594 F11.34
G01 X175.7776 Y37.3708 F11.34
G01 X175.7672 Y37.3812 F11.34
G01 X175.7587 Y37.3883 F11.34
G01 X175.7528 Y37.3927 F11.34
G01 X175.7404 Y37.4006 F11.34
G01 X175.7272 Y37.4072 F11.34
G01 X175.7135 Y37.4125 F11.34
G01 X175.7029 Y37.4156 F11.34
G01 X175.6957 Y37.4172 F11.34
G01 X175.6811 Y37.4194 F11.34
G01 X175.6664 Y37.4201 F11.34
G01 X173.9627 Y37.4200 F11.34
G01 X173.9481 Y37.4189 F11.34
G01 X173.9336 Y37.4164 F11.34
G01 X173.9194 Y37.4125 F11.34
G01 X173.9090 Y37.4087 F11.34
G01 X173.8990 Y37.4041 F11.34
G01 X173.8862 Y37.3968 F11.34
G01 X173.8741 Y37.3883 F11.34
G01 X173.8657 Y37.3812 F11.34
G01 X173.8553 Y37.3708 F11.34
G01 X173.8459 Y37.3594 F11.34
G01 X173.8378 Y37.3472 F11.34
G01 X173.8324 Y37.3375 F11.34
G01 X173.8293 Y37.3309 F11.34
G01 X173.8252 Y37.3206 F11.34
G01 X173.8229 Y37.3136 F11.34
G01 X173.8193 Y37.2993 F11.34
G01 X173.8171 Y37.2848 F11.34
G01 X173.8164 Y37.2701 F11.34
G01 X173.8165 Y35.5664 F11.34
G01 X173.8176 Y35.5517 F11.34
G01 X173.8193 Y35.5408 F11.34
G01 X173.8219 Y35.5301 F11.34
G01 X173.8265 Y35.5161 F11.34
G01 X173.8324 Y35.5026 F11.34
G01 X173.8378 Y35.4930 F11.34
G01 X173.8459 Y35.4807 F11.34
G01 X173.8553 Y35.4693 F11.34
G01 X173.8657 Y35.4589 F11.34
G01 X173.8771 Y35.4496 F11.34
G01 X173.8893 Y35.4414 F11.34
G01 X173.9023 Y35.4345 F11.34
G01 X173.9159 Y35.4288 F11.34
G01 X173.9264 Y35.4255 F11.34
G01 X173.9336 Y35.4237 F11.34
G01 X173.9481 Y35.4212 F11.34
G01 X173.9627 Y35.4201 F11.34
G01 X175.6664 Y35.4201 F11.34
G00 Z1.0000
G00 X175.5164 Y35.4201
G01 F15.40
G01 Z-0.1500
G01 F11.34
G01 X175.6664 Y35.4201 F11.34
G01 X175.6775 Y35.4205 F11.34
G01 X175.6921 Y35.4223 F11.34
G01 X175.7064 Y35.4255 F11.34
G01 X175.7204 Y35.4301 F11.34
G01 X175.7339 Y35.4361 F11.34
G01 X175.7467 Y35.4433 F11.34
G01 X175.7587 Y35.4518 F11.34
G01 X175.7699 Y35.4614 F11.34
G01 X175.7800 Y35.4721 F11.34
G01 X175.7891 Y35.4837 F11.34
G01 X175.7925 Y35.4892 F11.34
G01 X175.7891 Y35.4837 F11.34
G01 X175.7800 Y35.4721 F11.34
G01 X175.7699 Y35.4614 F11.34
G01 X175.7587 Y35.4518 F11.34
G01 X175.7467 Y35.4433 F11.34
G01 X175.7339 Y35.4361 F11.34
G01 X175.7204 Y35.4301 F11.34
G01 X175.7064 Y35.4255 F11.34
G01 X175.6921 Y35.4223 F11.34
G01 X175.6775 Y35.4205 F11.34
G01 X175.6664 Y35.4201 F11.34
G00 Z1.0000
M05
G00 Z1.0000
G00 Z1.00
G00 X190.2065 Y35.0


   (Move to maintenance position)
 G21 G90 G53 F200 Z-1
 G21 G90 G17 F200 X181.80142506248126
 G21 G90 G53 F200 Y0 Z-1
				G17
				
  (########## ACTION ##########)
 (Clean the chips)
 M0
 
 
  (########## ACTION ##########)
 (Sand PCB to deburr milled regions)
 M0
 
 
