(G-CODE GENERATED BY FLATCAM v8.994 - www.flatcam.org - Version Date: 2020/11/7)

(Name: B_Mask_Mask.nc)
(Type: G-code from Geometry)
(Units: MM)

(Created on Friday, 31 October 2025 at 16:13)

(This preprocessor is used with a motion controller loaded with GRBL firmware.)
(It is configured to be compatible with almost any version of GRBL firmware.)

(TOOL DIAMETER: 0.2 mm)
(Feedrate_XY: 100.0 mm/min)
(Feedrate_Z: 100.0 mm/min)
(Feedrate rapids 1500.0 mm/min)

(Z_Cut: -0.1 mm)
(Z_Move: 1.0 mm)
(Z Start: None mm)
(Z End: 1.0 mm)
(X,Y End: 190.2065, 35.0000 mm)
(Steps per circle: 64)
(Steps per circle: 64)
(Preprocessor Geometry: GRBL_11_no_M6)

(X range:  174.0664 ...  175.5664  mm)
(Y range:   35.6701 ...   42.2500  mm)

(Spindle Speed: 10000 RPM)
G21
G90
G17
G94


G01 F100.00
G00 Z1.0000

M03 S10000
G4 P3.0
G00 X174.0664 Y35.7701
G01 F100.00
G01 Z-0.1000
G01 F100.00
G01 X175.5664 Y35.7701 F100.00
G01 X175.5664 Y35.6701 F100.00
G01 X174.0664 Y35.6701 F100.00
G01 X174.0664 Y37.1701 F100.00
G01 X175.5664 Y37.1701 F100.00
G01 X175.5664 Y35.6701 F100.00
G01 X175.5664 Y35.9701 F100.00
G01 X174.0664 Y35.9701 F100.00
G01 X174.0664 Y36.1701 F100.00
G01 X175.5664 Y36.1701 F100.00
G01 X175.5664 Y36.3701 F100.00
G01 X174.0664 Y36.3701 F100.00
G01 X174.0664 Y36.5701 F100.00
G01 X175.5664 Y36.5701 F100.00
G01 X175.5664 Y36.7701 F100.00
G01 X174.0664 Y36.7701 F100.00
G01 X174.0664 Y36.9701 F100.00
G01 X175.5664 Y36.9701 F100.00
G00 Z1.0000
G00 X175.1034 Y38.2673
G01 F100.00
G01 Z-0.1000
G01 F100.00
G01 X175.1699 Y38.2987 F100.00
G01 X175.2330 Y38.3366 F100.00
G01 X175.2921 Y38.3804 F100.00
G01 X175.3467 Y38.4298 F100.00
G01 X175.3961 Y38.4844 F100.00
G01 X175.4399 Y38.5435 F100.00
G01 X175.4778 Y38.6066 F100.00
G01 X175.5092 Y38.6731 F100.00
G01 X175.5340 Y38.7424 F100.00
G01 X175.5519 Y38.8138 F100.00
G01 X175.5627 Y38.8866 F100.00
G01 X175.5663 Y38.9601 F100.00
G01 X175.5627 Y39.0336 F100.00
G01 X175.5519 Y39.1064 F100.00
G01 X175.5340 Y39.1778 F100.00
G01 X175.5092 Y39.2470 F100.00
G01 X175.4778 Y39.3136 F100.00
G01 X175.4399 Y39.3767 F100.00
G01 X175.3961 Y39.4358 F100.00
G01 X175.3467 Y39.4903 F100.00
G01 X175.2921 Y39.5397 F100.00
G01 X175.2330 Y39.5836 F100.00
G01 X175.1699 Y39.6214 F100.00
G01 X175.1034 Y39.6529 F100.00
G01 X175.0341 Y39.6777 F100.00
G01 X174.9627 Y39.6955 F100.00
G01 X174.8899 Y39.7063 F100.00
G01 X174.8164 Y39.7100 F100.00
G01 X174.7429 Y39.7063 F100.00
G01 X174.6701 Y39.6955 F100.00
G01 X174.5987 Y39.6777 F100.00
G01 X174.5295 Y39.6529 F100.00
G01 X174.4629 Y39.6214 F100.00
G01 X174.3998 Y39.5836 F100.00
G01 X174.3407 Y39.5397 F100.00
G01 X174.2862 Y39.4903 F100.00
G01 X174.2368 Y39.4358 F100.00
G01 X174.1929 Y39.3767 F100.00
G01 X174.1551 Y39.3136 F100.00
G01 X174.1236 Y39.2470 F100.00
G01 X174.0988 Y39.1778 F100.00
G01 X174.0810 Y39.1064 F100.00
G01 X174.0702 Y39.0336 F100.00
G01 X174.0665 Y38.9601 F100.00
G01 X174.0702 Y38.8866 F100.00
G01 X174.0810 Y38.8138 F100.00
G01 X174.0988 Y38.7424 F100.00
G01 X174.1236 Y38.6731 F100.00
G01 X174.1551 Y38.6066 F100.00
G01 X174.1929 Y38.5435 F100.00
G01 X174.2368 Y38.4844 F100.00
G01 X174.2862 Y38.4298 F100.00
G01 X174.3407 Y38.3804 F100.00
G01 X174.3998 Y38.3366 F100.00
G01 X174.4629 Y38.2987 F100.00
G01 X174.5295 Y38.2673 F100.00
G01 X174.5987 Y38.2425 F100.00
G01 X174.6701 Y38.2246 F100.00
G01 X174.7429 Y38.2138 F100.00
G01 X174.8164 Y38.2102 F100.00
G01 X174.8899 Y38.2138 F100.00
G01 X174.9627 Y38.2246 F100.00
G01 X175.0341 Y38.2425 F100.00
G01 X175.1034 Y38.2673 F100.00
G01 X175.1888 Y38.3101 F100.00
G01 X174.4440 Y38.3101 F100.00
G01 X174.2177 Y38.5101 F100.00
G01 X175.4152 Y38.5101 F100.00
G01 X175.3249 Y39.5101 F100.00
G01 X174.3080 Y39.5101 F100.00
G01 X174.1534 Y39.3101 F100.00
G01 X175.4794 Y39.3101 F100.00
G01 X175.5510 Y39.1101 F100.00
G01 X174.0819 Y39.1101 F100.00
G01 X174.0690 Y38.9101 F100.00
G01 X175.5638 Y38.9101 F100.00
G01 X175.5224 Y38.7101 F100.00
G01 X174.1104 Y38.7101 F100.00
G00 Z1.0000
G00 X175.1034 Y40.8073
G01 F100.00
G01 Z-0.1000
G01 F100.00
G01 X175.1699 Y40.8387 F100.00
G01 X175.2330 Y40.8766 F100.00
G01 X175.2921 Y40.9204 F100.00
G01 X175.3467 Y40.9698 F100.00
G01 X175.3961 Y41.0244 F100.00
G01 X175.4399 Y41.0835 F100.00
G01 X175.4778 Y41.1466 F100.00
G01 X175.5092 Y41.2131 F100.00
G01 X175.5340 Y41.2824 F100.00
G01 X175.5519 Y41.3538 F100.00
G01 X175.5627 Y41.4266 F100.00
G01 X175.5663 Y41.5001 F100.00
G01 X175.5627 Y41.5736 F100.00
G01 X175.5519 Y41.6464 F100.00
G01 X175.5340 Y41.7178 F100.00
G01 X175.5092 Y41.7870 F100.00
G01 X175.4778 Y41.8536 F100.00
G01 X175.4399 Y41.9167 F100.00
G01 X175.3961 Y41.9758 F100.00
G01 X175.3467 Y42.0303 F100.00
G01 X175.2921 Y42.0797 F100.00
G01 X175.2330 Y42.1236 F100.00
G01 X175.1699 Y42.1614 F100.00
G01 X175.1034 Y42.1929 F100.00
G01 X175.0341 Y42.2177 F100.00
G01 X174.9627 Y42.2355 F100.00
G01 X174.8899 Y42.2463 F100.00
G01 X174.8164 Y42.2500 F100.00
G01 X174.7429 Y42.2463 F100.00
G01 X174.6701 Y42.2355 F100.00
G01 X174.5987 Y42.2177 F100.00
G01 X174.5295 Y42.1929 F100.00
G01 X174.4629 Y42.1614 F100.00
G01 X174.3998 Y42.1236 F100.00
G01 X174.3407 Y42.0797 F100.00
G01 X174.2862 Y42.0303 F100.00
G01 X174.2368 Y41.9758 F100.00
G01 X174.1929 Y41.9167 F100.00
G01 X174.1551 Y41.8536 F100.00
G01 X174.1236 Y41.7870 F100.00
G01 X174.0988 Y41.7178 F100.00
G01 X174.0810 Y41.6464 F100.00
G01 X174.0702 Y41.5736 F100.00
G01 X174.0665 Y41.5001 F100.00
G01 X174.0702 Y41.4266 F100.00
G01 X174.0810 Y41.3538 F100.00
G01 X174.0988 Y41.2824 F100.00
G01 X174.1236 Y41.2131 F100.00
G01 X174.1551 Y41.1466 F100.00
G01 X174.1929 Y41.0835 F100.00
G01 X174.2368 Y41.0244 F100.00
G01 X174.2862 Y40.9698 F100.00
G01 X174.3407 Y40.9204 F100.00
G01 X174.3998 Y40.8766 F100.00
G01 X174.4629 Y40.8387 F100.00
G01 X174.5295 Y40.8073 F100.00
G01 X174.5987 Y40.7825 F100.00
G01 X174.6701 Y40.7646 F100.00
G01 X174.7429 Y40.7538 F100.00
G01 X174.8164 Y40.7502 F100.00
G01 X174.8899 Y40.7538 F100.00
G01 X174.9627 Y40.7646 F100.00
G01 X175.0341 Y40.7825 F100.00
G01 X175.1034 Y40.8073 F100.00
G01 X175.1888 Y40.8501 F100.00
G01 X174.4440 Y40.8501 F100.00
G01 X174.2177 Y41.0501 F100.00
G01 X175.4152 Y41.0501 F100.00
G01 X175.3249 Y42.0501 F100.00
G01 X174.3080 Y42.0501 F100.00
G01 X174.1534 Y41.8501 F100.00
G01 X175.4794 Y41.8501 F100.00
G01 X175.5510 Y41.6501 F100.00
G01 X174.0819 Y41.6501 F100.00
G01 X174.0690 Y41.4501 F100.00
G01 X175.5638 Y41.4501 F100.00
G01 X175.5224 Y41.2501 F100.00
G01 X174.1104 Y41.2501 F100.00
G00 Z1.0000
M05
G00 Z1.0000
G00 Z1.00
G00 X190.2065 Y35.0


