(G-CODE GENERATED BY FLATCAM v8.994 - www.flatcam.org - Version Date: 2020/11/7)

(Name: B_0x0_Mask_Mask.nc)
(Type: G-code from Geometry)
(Units: MM)

(Created on Friday, 31 October 2025 at 16:13)

(This preprocessor is used with a motion controller loaded with GRBL firmware.)
(It is configured to be compatible with almost any version of GRBL firmware.)

(TOOL DIAMETER: 0.2 mm)
(Feedrate_XY: 100.0 mm/min)
(Feedrate_Z: 100.0 mm/min)
(Feedrate rapids 1500.0 mm/min)

(Z_Cut: -0.1 mm)
(Z_Move: 1.0 mm)
(Z Start: None mm)
(Z End: 1.0 mm)
(X,Y End: 190.2065, 35.0000 mm)
(Steps per circle: 64)
(Steps per circle: 64)
(Preprocessor Geometry: GRBL_11_no_M6)

(X range:  189.9066 ...  190.5064  mm)
(Y range:   34.7001 ...   35.2999  mm)

(Spindle Speed: 10000 RPM)
G21
G90
G17
G94


G01 F100.00
G00 Z1.0000

M03 S10000
G4 P3.0
G00 X189.9242 Y34.9000
G01 F100.00
G01 Z-0.1000
G01 F100.00
G01 X190.4888 Y34.9000 F100.00
G01 X190.4888 Y35.1000 F100.00
G01 X189.9242 Y35.1000 F100.00
G01 X189.9066 Y35.0000 F100.00
G01 X189.9081 Y35.0294 F100.00
G01 X189.9124 Y35.0585 F100.00
G01 X189.9195 Y35.0870 F100.00
G01 X189.9295 Y35.1148 F100.00
G01 X189.9420 Y35.1414 F100.00
G01 X189.9572 Y35.1666 F100.00
G01 X189.9747 Y35.1902 F100.00
G01 X189.9945 Y35.2120 F100.00
G01 X190.0163 Y35.2318 F100.00
G01 X190.0399 Y35.2493 F100.00
G01 X190.0651 Y35.2645 F100.00
G01 X190.0917 Y35.2770 F100.00
G01 X190.1195 Y35.2870 F100.00
G01 X190.1480 Y35.2941 F100.00
G01 X190.1771 Y35.2984 F100.00
G01 X190.2065 Y35.2999 F100.00
G01 X190.2359 Y35.2984 F100.00
G01 X190.2650 Y35.2941 F100.00
G01 X190.2935 Y35.2870 F100.00
G01 X190.3213 Y35.2770 F100.00
G01 X190.3479 Y35.2645 F100.00
G01 X190.3731 Y35.2493 F100.00
G01 X190.3967 Y35.2318 F100.00
G01 X190.4185 Y35.2120 F100.00
G01 X190.4383 Y35.1902 F100.00
G01 X190.4558 Y35.1666 F100.00
G01 X190.4710 Y35.1414 F100.00
G01 X190.4835 Y35.1148 F100.00
G01 X190.4935 Y35.0870 F100.00
G01 X190.5006 Y35.0585 F100.00
G01 X190.5049 Y35.0294 F100.00
G01 X190.5064 Y35.0000 F100.00
G01 X190.5049 Y34.9706 F100.00
G01 X190.5006 Y34.9415 F100.00
G01 X190.4935 Y34.9130 F100.00
G01 X190.4835 Y34.8852 F100.00
G01 X190.4710 Y34.8586 F100.00
G01 X190.4558 Y34.8334 F100.00
G01 X190.4383 Y34.8098 F100.00
G01 X190.4185 Y34.7880 F100.00
G01 X190.3967 Y34.7682 F100.00
G01 X190.3731 Y34.7507 F100.00
G01 X190.3479 Y34.7355 F100.00
G01 X190.3213 Y34.7230 F100.00
G01 X190.2935 Y34.7130 F100.00
G01 X190.2650 Y34.7059 F100.00
G01 X190.2359 Y34.7016 F100.00
G01 X190.2065 Y34.7001 F100.00
G01 X190.1771 Y34.7016 F100.00
G01 X190.1480 Y34.7059 F100.00
G01 X190.1195 Y34.7130 F100.00
G01 X190.0917 Y34.7230 F100.00
G01 X190.0651 Y34.7355 F100.00
G01 X190.0399 Y34.7507 F100.00
G01 X190.0163 Y34.7682 F100.00
G01 X189.9945 Y34.7880 F100.00
G01 X189.9747 Y34.8098 F100.00
G01 X189.9572 Y34.8334 F100.00
G01 X189.9420 Y34.8586 F100.00
G01 X189.9295 Y34.8852 F100.00
G01 X189.9195 Y34.9130 F100.00
G01 X189.9124 Y34.9415 F100.00
G01 X189.9081 Y34.9706 F100.00
G01 X189.9066 Y35.0000 F100.00
G00 Z1.0000
M05
G00 Z1.0000
G00 Z1.00
G00 X190.2065 Y35.0


