(G-CODE GENERATED BY FLATCAM v8.994 - www.flatcam.org - Version Date: 2020/11/7)

(Name: B_Edge_Cuts_Clearance_Mask.nc)
(Type: G-code from Geometry)
(Units: MM)

(Created on Friday, 31 October 2025 at 16:13)

(This preprocessor is used with a motion controller loaded with GRBL firmware.)
(It is configured to be compatible with almost any version of GRBL firmware.)

(TOOL DIAMETER: 0.2 mm)
(Feedrate_XY: 100.0 mm/min)
(Feedrate_Z: 100.0 mm/min)
(Feedrate rapids 1500.0 mm/min)

(Z_Cut: -0.1 mm)
(Z_Move: 1.0 mm)
(Z Start: None mm)
(Z End: 1.0 mm)
(X,Y End: 190.2065, 35.0000 mm)
(Steps per circle: 64)
(Steps per circle: 64)
(Preprocessor Geometry: GRBL_11_no_M6)

(X range:  173.3964 ...  190.2065  mm)
(Y range:   35.0000 ...   42.9201  mm)

(Spindle Speed: 10000 RPM)
G21
G90
G17
G94


G01 F100.00
G00 Z1.0000

M03 S10000
G4 P3.0
G00 X190.2065 Y35.1501
G01 F100.00
G01 Z-0.1000
G01 F100.00
G01 X190.2058 Y35.1354 F100.00
G01 X190.2036 Y35.1208 F100.00
G01 X190.2000 Y35.1065 F100.00
G01 X190.1951 Y35.0926 F100.00
G01 X190.1888 Y35.0793 F100.00
G01 X190.1812 Y35.0667 F100.00
G01 X190.1724 Y35.0549 F100.00
G01 X190.1625 Y35.0440 F100.00
G01 X190.1516 Y35.0341 F100.00
G01 X190.1398 Y35.0253 F100.00
G01 X190.1272 Y35.0177 F100.00
G01 X190.1139 Y35.0114 F100.00
G01 X190.1000 Y35.0065 F100.00
G01 X190.0857 Y35.0029 F100.00
G01 X190.0711 Y35.0007 F100.00
G01 X190.0564 Y35.0000 F100.00
G01 X173.5464 Y35.0000 F100.00
G01 X173.5317 Y35.0007 F100.00
G01 X173.5171 Y35.0029 F100.00
G01 X173.5029 Y35.0065 F100.00
G01 X173.4890 Y35.0114 F100.00
G01 X173.4757 Y35.0177 F100.00
G01 X173.4630 Y35.0253 F100.00
G01 X173.4512 Y35.0341 F100.00
G01 X173.4403 Y35.0440 F100.00
G01 X173.4304 Y35.0549 F100.00
G01 X173.4216 Y35.0667 F100.00
G01 X173.4141 Y35.0793 F100.00
G01 X173.4078 Y35.0926 F100.00
G01 X173.4028 Y35.1065 F100.00
G01 X173.3992 Y35.1208 F100.00
G01 X173.3971 Y35.1354 F100.00
G01 X173.3964 Y35.1501 F100.00
G01 X173.3964 Y42.7701 F100.00
G01 X173.3971 Y42.7848 F100.00
G01 X173.3992 Y42.7994 F100.00
G01 X173.4028 Y42.8136 F100.00
G01 X173.4078 Y42.8275 F100.00
G01 X173.4141 Y42.8408 F100.00
G01 X173.4216 Y42.8535 F100.00
G01 X173.4304 Y42.8653 F100.00
G01 X173.4403 Y42.8762 F100.00
G01 X173.4512 Y42.8861 F100.00
G01 X173.4630 Y42.8949 F100.00
G01 X173.4757 Y42.9024 F100.00
G01 X173.4890 Y42.9087 F100.00
G01 X173.5029 Y42.9137 F100.00
G01 X173.5171 Y42.9173 F100.00
G01 X173.5317 Y42.9194 F100.00
G01 X173.5464 Y42.9201 F100.00
G01 X190.0564 Y42.9201 F100.00
G01 X190.0711 Y42.9194 F100.00
G01 X190.0857 Y42.9173 F100.00
G01 X190.1000 Y42.9137 F100.00
G01 X190.1139 Y42.9087 F100.00
G01 X190.1272 Y42.9024 F100.00
G01 X190.1398 Y42.8949 F100.00
G01 X190.1516 Y42.8861 F100.00
G01 X190.1625 Y42.8762 F100.00
G01 X190.1724 Y42.8653 F100.00
G01 X190.1812 Y42.8535 F100.00
G01 X190.1888 Y42.8408 F100.00
G01 X190.1951 Y42.8275 F100.00
G01 X190.2000 Y42.8136 F100.00
G01 X190.2036 Y42.7994 F100.00
G01 X190.2058 Y42.7848 F100.00
G01 X190.2065 Y42.7701 F100.00
G01 X190.2065 Y35.1501 F100.00
G00 Z1.0000
M05
G00 Z1.0000
G00 Z1.00
G00 X190.2065 Y35.0


