(G-CODE GENERATED BY FLATCAM v8.994 - www.flatcam.org - Version Date: 2020/11/7)

(Name: B_Drill.nc)
(Type: G-code from Geometry)
(Units: MM)

(Created on Friday, 31 October 2025 at 16:13)


   (Move to maintenance position)
 G21 G90 G53 F200 Z-1
 G21 G90 G17 F200 X181.80142506248126
 G21 G90 G53 F200 Y0 Z-1
				G17
				
				 (########## ACTION ##########)
 (Insert First drill bit)
 M0
 
 
  (Move to PCB Back 0x0)
 G21 G90 X190.2065 Y35 F200
 
				 (########## ACTION ##########)
 (Connect probe to PCB)
 M0
 
 (Z Probe)
 G21 G90 G53 Z-12
 G91 G21
 G38.2 Z-35 F10
 G92 Z0
 G90
 G0 Z1

				
 
  (########## ACTION ##########)
 (Disconnect probe)
 M0
 
 
G01 F100.00

M5             
G00 Z23.0000
G00 X181.8014 Y43.0201                
T1
(MSG, Change to Tool Dia = 1.0008 ||| Total drills for tool T1 = 1)
M0
G00 Z23.0000
        
M03 S10000.0
G4 P3.0
G00 X174.8164 Y41.5001
G01 Z-2.0000
G00 Z1.0000
G00 X174.8164 Y38.9601
G01 Z-2.0000
G00 Z1.0000
G00 X174.8164 Y36.4201
G01 Z-2.0000
G00 Z1.0000
M05
G00 Z2.00
G00 X190.2065 Y35.0


   (Move to maintenance position)
 G21 G90 G53 F200 Z-1
 G21 G90 G17 F200 X181.80142506248126
 G21 G90 G53 F200 Y0 Z-1
				G17
				
  (########## ACTION ##########)
 (Clean the chips)
 M0
 
 
 
