(G-CODE GENERATED BY FLATCAM v8.994 - www.flatcam.org - Version Date: 2020/11/7)

(Name: B_Edge_Cuts.nc)
(Type: G-code from Geometry)
(Units: MM)

(Created on Friday, 31 October 2025 at 16:13)

(This preprocessor is used with a motion controller loaded with GRBL firmware.)
(It is configured to be compatible with almost any version of GRBL firmware.)

(TOOL DIAMETER: 0.5 mm)
(Feedrate_XY: 20.0 mm/min)
(Feedrate_Z: 6.0 mm/min)
(Feedrate rapids 1500.0 mm/min)

(Z_Cut: -1.8 mm)
(DepthPerCut: 0.3 mm <=>6 passes)
(Z_Move: 1.0 mm)
(Z Start: None mm)
(Z End: 1.0 mm)
(X,Y End: 190.2065, 35.0000 mm)
(Steps per circle: 64)
(Steps per circle: 64)
(Preprocessor Geometry: GRBL_11_no_M6)

(X range:  173.1464 ...  190.4565  mm)
(Y range:   34.7500 ...   43.1701  mm)

(Spindle Speed: 10000 RPM)
G21
G90
G17
G94


   (Move to maintenance position)
 G21 G90 G53 F200 Z-1
 G21 G90 G17 F200 X181.80142506248126
 G21 G90 G53 F200 Y0 Z-1
				G17
				
				 (########## ACTION ##########)
 (Insert Insert cutout 0.5mm bit)
 M0
 
 
  (Move to PCB Back 0x0)
 G21 G90 X190.2065 Y35 F200
 
				 (########## ACTION ##########)
 (Connect probe to PCB)
 M0
 
 (Z Probe)
 G21 G90 G53 Z-12
 G91 G21
 G38.2 Z-35 F10
 G92 Z0
 G90
 G0 Z1

				
 
 
G01 F20.00
G00 Z1.0000

M03 S10000
G4 P3.0
G00 X190.4565 Y35.1439
G01 F6.00
G01 Z-0.3000
G01 F20.00
G01 X190.4549 Y35.1108 F20.00
G01 X190.4491 Y35.0720 F20.00
G01 X190.4396 Y35.0339 F20.00
G01 X190.4263 Y34.9969 F20.00
G01 X190.4095 Y34.9613 F20.00
G01 X190.3893 Y34.9276 F20.00
G01 X190.3659 Y34.8961 F20.00
G01 X190.3395 Y34.8670 F20.00
G01 X190.3104 Y34.8406 F20.00
G01 X190.2789 Y34.8172 F20.00
G01 X190.2452 Y34.7970 F20.00
G01 X190.2096 Y34.7802 F20.00
G01 X190.1726 Y34.7669 F20.00
G01 X190.1345 Y34.7574 F20.00
G01 X190.0957 Y34.7516 F20.00
G01 X190.0626 Y34.7500 F20.00
G01 X173.5403 Y34.7500 F20.00
G01 X173.5072 Y34.7516 F20.00
G01 X173.4683 Y34.7574 F20.00
G01 X173.4302 Y34.7669 F20.00
G01 X173.3932 Y34.7802 F20.00
G01 X173.3577 Y34.7970 F20.00
G01 X173.3240 Y34.8172 F20.00
G01 X173.2924 Y34.8406 F20.00
G01 X173.2633 Y34.8670 F20.00
G01 X173.2369 Y34.8961 F20.00
G01 X173.2135 Y34.9276 F20.00
G01 X173.1933 Y34.9613 F20.00
G01 X173.1765 Y34.9969 F20.00
G01 X173.1633 Y35.0339 F20.00
G01 X173.1537 Y35.0720 F20.00
G01 X173.1480 Y35.1108 F20.00
G01 X173.1464 Y35.1439 F20.00
G01 X173.1464 Y42.7762 F20.00
G01 X173.1480 Y42.8093 F20.00
G01 X173.1537 Y42.8482 F20.00
G01 X173.1633 Y42.8863 F20.00
G01 X173.1765 Y42.9233 F20.00
G01 X173.1933 Y42.9588 F20.00
G01 X173.2135 Y42.9925 F20.00
G01 X173.2369 Y43.0241 F20.00
G01 X173.2633 Y43.0532 F20.00
G01 X173.2924 Y43.0796 F20.00
G01 X173.3240 Y43.1030 F20.00
G01 X173.3577 Y43.1232 F20.00
G01 X173.3932 Y43.1400 F20.00
G01 X173.4302 Y43.1532 F20.00
G01 X173.4683 Y43.1628 F20.00
G01 X173.5072 Y43.1685 F20.00
G01 X173.5403 Y43.1701 F20.00
G01 X190.0626 Y43.1701 F20.00
G01 X190.0957 Y43.1685 F20.00
G01 X190.1345 Y43.1628 F20.00
G01 X190.1726 Y43.1532 F20.00
G01 X190.2096 Y43.1400 F20.00
G01 X190.2452 Y43.1232 F20.00
G01 X190.2789 Y43.1030 F20.00
G01 X190.3104 Y43.0796 F20.00
G01 X190.3395 Y43.0532 F20.00
G01 X190.3659 Y43.0241 F20.00
G01 X190.3893 Y42.9925 F20.00
G01 X190.4095 Y42.9588 F20.00
G01 X190.4263 Y42.9233 F20.00
G01 X190.4396 Y42.8863 F20.00
G01 X190.4491 Y42.8482 F20.00
G01 X190.4549 Y42.8093 F20.00
G01 X190.4565 Y42.7762 F20.00
G01 X190.4565 Y35.1439 F20.00
G00 Z1.0000
G00 X190.4565 Y35.3939
G01 F6.00
G01 Z-0.3000
G01 F20.00
G01 X190.4565 Y35.1439 F20.00
G01 X190.4549 Y35.1108 F20.00
G01 X190.4491 Y35.0720 F20.00
G01 X190.4396 Y35.0339 F20.00
G01 X190.4263 Y34.9969 F20.00
G01 X190.4095 Y34.9613 F20.00
G01 X190.3893 Y34.9276 F20.00
G01 X190.3772 Y34.9113 F20.00
G01 X190.3893 Y34.9276 F20.00
G01 X190.4095 Y34.9613 F20.00
G01 X190.4263 Y34.9969 F20.00
G01 X190.4396 Y35.0339 F20.00
G01 X190.4491 Y35.0720 F20.00
G01 X190.4549 Y35.1108 F20.00
G01 X190.4565 Y35.1439 F20.00
G00 X190.4565 Y35.1439
G01 F6.00
G01 Z-0.6000
G01 F20.00
G01 X190.4549 Y35.1108 F20.00
G01 X190.4491 Y35.0720 F20.00
G01 X190.4396 Y35.0339 F20.00
G01 X190.4263 Y34.9969 F20.00
G01 X190.4095 Y34.9613 F20.00
G01 X190.3893 Y34.9276 F20.00
G01 X190.3659 Y34.8961 F20.00
G01 X190.3395 Y34.8670 F20.00
G01 X190.3104 Y34.8406 F20.00
G01 X190.2789 Y34.8172 F20.00
G01 X190.2452 Y34.7970 F20.00
G01 X190.2096 Y34.7802 F20.00
G01 X190.1726 Y34.7669 F20.00
G01 X190.1345 Y34.7574 F20.00
G01 X190.0957 Y34.7516 F20.00
G01 X190.0626 Y34.7500 F20.00
G01 X173.5403 Y34.7500 F20.00
G01 X173.5072 Y34.7516 F20.00
G01 X173.4683 Y34.7574 F20.00
G01 X173.4302 Y34.7669 F20.00
G01 X173.3932 Y34.7802 F20.00
G01 X173.3577 Y34.7970 F20.00
G01 X173.3240 Y34.8172 F20.00
G01 X173.2924 Y34.8406 F20.00
G01 X173.2633 Y34.8670 F20.00
G01 X173.2369 Y34.8961 F20.00
G01 X173.2135 Y34.9276 F20.00
G01 X173.1933 Y34.9613 F20.00
G01 X173.1765 Y34.9969 F20.00
G01 X173.1633 Y35.0339 F20.00
G01 X173.1537 Y35.0720 F20.00
G01 X173.1480 Y35.1108 F20.00
G01 X173.1464 Y35.1439 F20.00
G01 X173.1464 Y42.7762 F20.00
G01 X173.1480 Y42.8093 F20.00
G01 X173.1537 Y42.8482 F20.00
G01 X173.1633 Y42.8863 F20.00
G01 X173.1765 Y42.9233 F20.00
G01 X173.1933 Y42.9588 F20.00
G01 X173.2135 Y42.9925 F20.00
G01 X173.2369 Y43.0241 F20.00
G01 X173.2633 Y43.0532 F20.00
G01 X173.2924 Y43.0796 F20.00
G01 X173.3240 Y43.1030 F20.00
G01 X173.3577 Y43.1232 F20.00
G01 X173.3932 Y43.1400 F20.00
G01 X173.4302 Y43.1532 F20.00
G01 X173.4683 Y43.1628 F20.00
G01 X173.5072 Y43.1685 F20.00
G01 X173.5403 Y43.1701 F20.00
G01 X190.0626 Y43.1701 F20.00
G01 X190.0957 Y43.1685 F20.00
G01 X190.1345 Y43.1628 F20.00
G01 X190.1726 Y43.1532 F20.00
G01 X190.2096 Y43.1400 F20.00
G01 X190.2452 Y43.1232 F20.00
G01 X190.2789 Y43.1030 F20.00
G01 X190.3104 Y43.0796 F20.00
G01 X190.3395 Y43.0532 F20.00
G01 X190.3659 Y43.0241 F20.00
G01 X190.3893 Y42.9925 F20.00
G01 X190.4095 Y42.9588 F20.00
G01 X190.4263 Y42.9233 F20.00
G01 X190.4396 Y42.8863 F20.00
G01 X190.4491 Y42.8482 F20.00
G01 X190.4549 Y42.8093 F20.00
G01 X190.4565 Y42.7762 F20.00
G01 X190.4565 Y35.1439 F20.00
G00 Z1.0000
G00 X190.4565 Y35.3939
G01 F6.00
G01 Z-0.6000
G01 F20.00
G01 X190.4565 Y35.1439 F20.00
G01 X190.4549 Y35.1108 F20.00
G01 X190.4491 Y35.0720 F20.00
G01 X190.4396 Y35.0339 F20.00
G01 X190.4263 Y34.9969 F20.00
G01 X190.4095 Y34.9613 F20.00
G01 X190.3893 Y34.9276 F20.00
G01 X190.3772 Y34.9113 F20.00
G01 X190.3893 Y34.9276 F20.00
G01 X190.4095 Y34.9613 F20.00
G01 X190.4263 Y34.9969 F20.00
G01 X190.4396 Y35.0339 F20.00
G01 X190.4491 Y35.0720 F20.00
G01 X190.4549 Y35.1108 F20.00
G01 X190.4565 Y35.1439 F20.00
G00 X190.4565 Y35.1439
G01 F6.00
G01 Z-0.9000
G01 F20.00
G01 X190.4549 Y35.1108 F20.00
G01 X190.4491 Y35.0720 F20.00
G01 X190.4396 Y35.0339 F20.00
G01 X190.4263 Y34.9969 F20.00
G01 X190.4095 Y34.9613 F20.00
G01 X190.3893 Y34.9276 F20.00
G01 X190.3659 Y34.8961 F20.00
G01 X190.3395 Y34.8670 F20.00
G01 X190.3104 Y34.8406 F20.00
G01 X190.2789 Y34.8172 F20.00
G01 X190.2452 Y34.7970 F20.00
G01 X190.2096 Y34.7802 F20.00
G01 X190.1726 Y34.7669 F20.00
G01 X190.1345 Y34.7574 F20.00
G01 X190.0957 Y34.7516 F20.00
G01 X190.0626 Y34.7500 F20.00
G01 X173.5403 Y34.7500 F20.00
G01 X173.5072 Y34.7516 F20.00
G01 X173.4683 Y34.7574 F20.00
G01 X173.4302 Y34.7669 F20.00
G01 X173.3932 Y34.7802 F20.00
G01 X173.3577 Y34.7970 F20.00
G01 X173.3240 Y34.8172 F20.00
G01 X173.2924 Y34.8406 F20.00
G01 X173.2633 Y34.8670 F20.00
G01 X173.2369 Y34.8961 F20.00
G01 X173.2135 Y34.9276 F20.00
G01 X173.1933 Y34.9613 F20.00
G01 X173.1765 Y34.9969 F20.00
G01 X173.1633 Y35.0339 F20.00
G01 X173.1537 Y35.0720 F20.00
G01 X173.1480 Y35.1108 F20.00
G01 X173.1464 Y35.1439 F20.00
G01 X173.1464 Y42.7762 F20.00
G01 X173.1480 Y42.8093 F20.00
G01 X173.1537 Y42.8482 F20.00
G01 X173.1633 Y42.8863 F20.00
G01 X173.1765 Y42.9233 F20.00
G01 X173.1933 Y42.9588 F20.00
G01 X173.2135 Y42.9925 F20.00
G01 X173.2369 Y43.0241 F20.00
G01 X173.2633 Y43.0532 F20.00
G01 X173.2924 Y43.0796 F20.00
G01 X173.3240 Y43.1030 F20.00
G01 X173.3577 Y43.1232 F20.00
G01 X173.3932 Y43.1400 F20.00
G01 X173.4302 Y43.1532 F20.00
G01 X173.4683 Y43.1628 F20.00
G01 X173.5072 Y43.1685 F20.00
G01 X173.5403 Y43.1701 F20.00
G01 X190.0626 Y43.1701 F20.00
G01 X190.0957 Y43.1685 F20.00
G01 X190.1345 Y43.1628 F20.00
G01 X190.1726 Y43.1532 F20.00
G01 X190.2096 Y43.1400 F20.00
G01 X190.2452 Y43.1232 F20.00
G01 X190.2789 Y43.1030 F20.00
G01 X190.3104 Y43.0796 F20.00
G01 X190.3395 Y43.0532 F20.00
G01 X190.3659 Y43.0241 F20.00
G01 X190.3893 Y42.9925 F20.00
G01 X190.4095 Y42.9588 F20.00
G01 X190.4263 Y42.9233 F20.00
G01 X190.4396 Y42.8863 F20.00
G01 X190.4491 Y42.8482 F20.00
G01 X190.4549 Y42.8093 F20.00
G01 X190.4565 Y42.7762 F20.00
G01 X190.4565 Y35.1439 F20.00
G00 Z1.0000
G00 X190.4565 Y35.3939
G01 F6.00
G01 Z-0.9000
G01 F20.00
G01 X190.4565 Y35.1439 F20.00
G01 X190.4549 Y35.1108 F20.00
G01 X190.4491 Y35.0720 F20.00
G01 X190.4396 Y35.0339 F20.00
G01 X190.4263 Y34.9969 F20.00
G01 X190.4095 Y34.9613 F20.00
G01 X190.3893 Y34.9276 F20.00
G01 X190.3772 Y34.9113 F20.00
G01 X190.3893 Y34.9276 F20.00
G01 X190.4095 Y34.9613 F20.00
G01 X190.4263 Y34.9969 F20.00
G01 X190.4396 Y35.0339 F20.00
G01 X190.4491 Y35.0720 F20.00
G01 X190.4549 Y35.1108 F20.00
G01 X190.4565 Y35.1439 F20.00
G00 X190.4565 Y35.1439
G01 F6.00
G01 Z-1.2000
G01 F20.00
G01 X190.4549 Y35.1108 F20.00
G01 X190.4491 Y35.0720 F20.00
G01 X190.4396 Y35.0339 F20.00
G01 X190.4263 Y34.9969 F20.00
G01 X190.4095 Y34.9613 F20.00
G01 X190.3893 Y34.9276 F20.00
G01 X190.3659 Y34.8961 F20.00
G01 X190.3395 Y34.8670 F20.00
G01 X190.3104 Y34.8406 F20.00
G01 X190.2789 Y34.8172 F20.00
G01 X190.2452 Y34.7970 F20.00
G01 X190.2096 Y34.7802 F20.00
G01 X190.1726 Y34.7669 F20.00
G01 X190.1345 Y34.7574 F20.00
G01 X190.0957 Y34.7516 F20.00
G01 X190.0626 Y34.7500 F20.00
G01 X173.5403 Y34.7500 F20.00
G01 X173.5072 Y34.7516 F20.00
G01 X173.4683 Y34.7574 F20.00
G01 X173.4302 Y34.7669 F20.00
G01 X173.3932 Y34.7802 F20.00
G01 X173.3577 Y34.7970 F20.00
G01 X173.3240 Y34.8172 F20.00
G01 X173.2924 Y34.8406 F20.00
G01 X173.2633 Y34.8670 F20.00
G01 X173.2369 Y34.8961 F20.00
G01 X173.2135 Y34.9276 F20.00
G01 X173.1933 Y34.9613 F20.00
G01 X173.1765 Y34.9969 F20.00
G01 X173.1633 Y35.0339 F20.00
G01 X173.1537 Y35.0720 F20.00
G01 X173.1480 Y35.1108 F20.00
G01 X173.1464 Y35.1439 F20.00
G01 X173.1464 Y42.7762 F20.00
G01 X173.1480 Y42.8093 F20.00
G01 X173.1537 Y42.8482 F20.00
G01 X173.1633 Y42.8863 F20.00
G01 X173.1765 Y42.9233 F20.00
G01 X173.1933 Y42.9588 F20.00
G01 X173.2135 Y42.9925 F20.00
G01 X173.2369 Y43.0241 F20.00
G01 X173.2633 Y43.0532 F20.00
G01 X173.2924 Y43.0796 F20.00
G01 X173.3240 Y43.1030 F20.00
G01 X173.3577 Y43.1232 F20.00
G01 X173.3932 Y43.1400 F20.00
G01 X173.4302 Y43.1532 F20.00
G01 X173.4683 Y43.1628 F20.00
G01 X173.5072 Y43.1685 F20.00
G01 X173.5403 Y43.1701 F20.00
G01 X190.0626 Y43.1701 F20.00
G01 X190.0957 Y43.1685 F20.00
G01 X190.1345 Y43.1628 F20.00
G01 X190.1726 Y43.1532 F20.00
G01 X190.2096 Y43.1400 F20.00
G01 X190.2452 Y43.1232 F20.00
G01 X190.2789 Y43.1030 F20.00
G01 X190.3104 Y43.0796 F20.00
G01 X190.3395 Y43.0532 F20.00
G01 X190.3659 Y43.0241 F20.00
G01 X190.3893 Y42.9925 F20.00
G01 X190.4095 Y42.9588 F20.00
G01 X190.4263 Y42.9233 F20.00
G01 X190.4396 Y42.8863 F20.00
G01 X190.4491 Y42.8482 F20.00
G01 X190.4549 Y42.8093 F20.00
G01 X190.4565 Y42.7762 F20.00
G01 X190.4565 Y35.1439 F20.00
G00 Z1.0000
G00 X190.4565 Y35.3939
G01 F6.00
G01 Z-1.2000
G01 F20.00
G01 X190.4565 Y35.1439 F20.00
G01 X190.4549 Y35.1108 F20.00
G01 X190.4491 Y35.0720 F20.00
G01 X190.4396 Y35.0339 F20.00
G01 X190.4263 Y34.9969 F20.00
G01 X190.4095 Y34.9613 F20.00
G01 X190.3893 Y34.9276 F20.00
G01 X190.3772 Y34.9113 F20.00
G01 X190.3893 Y34.9276 F20.00
G01 X190.4095 Y34.9613 F20.00
G01 X190.4263 Y34.9969 F20.00
G01 X190.4396 Y35.0339 F20.00
G01 X190.4491 Y35.0720 F20.00
G01 X190.4549 Y35.1108 F20.00
G01 X190.4565 Y35.1439 F20.00
G00 X190.4565 Y35.1439
G01 F6.00
G01 Z-1.5000
G01 F20.00
G01 X190.4549 Y35.1108 F20.00
G01 X190.4491 Y35.0720 F20.00
G01 X190.4396 Y35.0339 F20.00
G01 X190.4263 Y34.9969 F20.00
G01 X190.4095 Y34.9613 F20.00
G01 X190.3893 Y34.9276 F20.00
G01 X190.3659 Y34.8961 F20.00
G01 X190.3395 Y34.8670 F20.00
G01 X190.3104 Y34.8406 F20.00
G01 X190.2789 Y34.8172 F20.00
G01 X190.2452 Y34.7970 F20.00
G01 X190.2096 Y34.7802 F20.00
G01 X190.1726 Y34.7669 F20.00
G01 X190.1345 Y34.7574 F20.00
G01 X190.0957 Y34.7516 F20.00
G01 X190.0626 Y34.7500 F20.00
G01 X173.5403 Y34.7500 F20.00
G01 X173.5072 Y34.7516 F20.00
G01 X173.4683 Y34.7574 F20.00
G01 X173.4302 Y34.7669 F20.00
G01 X173.3932 Y34.7802 F20.00
G01 X173.3577 Y34.7970 F20.00
G01 X173.3240 Y34.8172 F20.00
G01 X173.2924 Y34.8406 F20.00
G01 X173.2633 Y34.8670 F20.00
G01 X173.2369 Y34.8961 F20.00
G01 X173.2135 Y34.9276 F20.00
G01 X173.1933 Y34.9613 F20.00
G01 X173.1765 Y34.9969 F20.00
G01 X173.1633 Y35.0339 F20.00
G01 X173.1537 Y35.0720 F20.00
G01 X173.1480 Y35.1108 F20.00
G01 X173.1464 Y35.1439 F20.00
G01 X173.1464 Y42.7762 F20.00
G01 X173.1480 Y42.8093 F20.00
G01 X173.1537 Y42.8482 F20.00
G01 X173.1633 Y42.8863 F20.00
G01 X173.1765 Y42.9233 F20.00
G01 X173.1933 Y42.9588 F20.00
G01 X173.2135 Y42.9925 F20.00
G01 X173.2369 Y43.0241 F20.00
G01 X173.2633 Y43.0532 F20.00
G01 X173.2924 Y43.0796 F20.00
G01 X173.3240 Y43.1030 F20.00
G01 X173.3577 Y43.1232 F20.00
G01 X173.3932 Y43.1400 F20.00
G01 X173.4302 Y43.1532 F20.00
G01 X173.4683 Y43.1628 F20.00
G01 X173.5072 Y43.1685 F20.00
G01 X173.5403 Y43.1701 F20.00
G01 X190.0626 Y43.1701 F20.00
G01 X190.0957 Y43.1685 F20.00
G01 X190.1345 Y43.1628 F20.00
G01 X190.1726 Y43.1532 F20.00
G01 X190.2096 Y43.1400 F20.00
G01 X190.2452 Y43.1232 F20.00
G01 X190.2789 Y43.1030 F20.00
G01 X190.3104 Y43.0796 F20.00
G01 X190.3395 Y43.0532 F20.00
G01 X190.3659 Y43.0241 F20.00
G01 X190.3893 Y42.9925 F20.00
G01 X190.4095 Y42.9588 F20.00
G01 X190.4263 Y42.9233 F20.00
G01 X190.4396 Y42.8863 F20.00
G01 X190.4491 Y42.8482 F20.00
G01 X190.4549 Y42.8093 F20.00
G01 X190.4565 Y42.7762 F20.00
G01 X190.4565 Y35.1439 F20.00
G00 Z1.0000
G00 X190.4565 Y35.3939
G01 F6.00
G01 Z-1.5000
G01 F20.00
G01 X190.4565 Y35.1439 F20.00
G01 X190.4549 Y35.1108 F20.00
G01 X190.4491 Y35.0720 F20.00
G01 X190.4396 Y35.0339 F20.00
G01 X190.4263 Y34.9969 F20.00
G01 X190.4095 Y34.9613 F20.00
G01 X190.3893 Y34.9276 F20.00
G01 X190.3772 Y34.9113 F20.00
G01 X190.3893 Y34.9276 F20.00
G01 X190.4095 Y34.9613 F20.00
G01 X190.4263 Y34.9969 F20.00
G01 X190.4396 Y35.0339 F20.00
G01 X190.4491 Y35.0720 F20.00
G01 X190.4549 Y35.1108 F20.00
G01 X190.4565 Y35.1439 F20.00
G00 X190.4565 Y35.1439
G01 F6.00
G01 Z-1.8000
G01 F20.00
G01 X190.4549 Y35.1108 F20.00
G01 X190.4491 Y35.0720 F20.00
G01 X190.4396 Y35.0339 F20.00
G01 X190.4263 Y34.9969 F20.00
G01 X190.4095 Y34.9613 F20.00
G01 X190.3893 Y34.9276 F20.00
G01 X190.3659 Y34.8961 F20.00
G01 X190.3395 Y34.8670 F20.00
G01 X190.3104 Y34.8406 F20.00
G01 X190.2789 Y34.8172 F20.00
G01 X190.2452 Y34.7970 F20.00
G01 X190.2096 Y34.7802 F20.00
G01 X190.1726 Y34.7669 F20.00
G01 X190.1345 Y34.7574 F20.00
G01 X190.0957 Y34.7516 F20.00
G01 X190.0626 Y34.7500 F20.00
G01 X173.5403 Y34.7500 F20.00
G01 X173.5072 Y34.7516 F20.00
G01 X173.4683 Y34.7574 F20.00
G01 X173.4302 Y34.7669 F20.00
G01 X173.3932 Y34.7802 F20.00
G01 X173.3577 Y34.7970 F20.00
G01 X173.3240 Y34.8172 F20.00
G01 X173.2924 Y34.8406 F20.00
G01 X173.2633 Y34.8670 F20.00
G01 X173.2369 Y34.8961 F20.00
G01 X173.2135 Y34.9276 F20.00
G01 X173.1933 Y34.9613 F20.00
G01 X173.1765 Y34.9969 F20.00
G01 X173.1633 Y35.0339 F20.00
G01 X173.1537 Y35.0720 F20.00
G01 X173.1480 Y35.1108 F20.00
G01 X173.1464 Y35.1439 F20.00
G01 X173.1464 Y42.7762 F20.00
G01 X173.1480 Y42.8093 F20.00
G01 X173.1537 Y42.8482 F20.00
G01 X173.1633 Y42.8863 F20.00
G01 X173.1765 Y42.9233 F20.00
G01 X173.1933 Y42.9588 F20.00
G01 X173.2135 Y42.9925 F20.00
G01 X173.2369 Y43.0241 F20.00
G01 X173.2633 Y43.0532 F20.00
G01 X173.2924 Y43.0796 F20.00
G01 X173.3240 Y43.1030 F20.00
G01 X173.3577 Y43.1232 F20.00
G01 X173.3932 Y43.1400 F20.00
G01 X173.4302 Y43.1532 F20.00
G01 X173.4683 Y43.1628 F20.00
G01 X173.5072 Y43.1685 F20.00
G01 X173.5403 Y43.1701 F20.00
G01 X190.0626 Y43.1701 F20.00
G01 X190.0957 Y43.1685 F20.00
G01 X190.1345 Y43.1628 F20.00
G01 X190.1726 Y43.1532 F20.00
G01 X190.2096 Y43.1400 F20.00
G01 X190.2452 Y43.1232 F20.00
G01 X190.2789 Y43.1030 F20.00
G01 X190.3104 Y43.0796 F20.00
G01 X190.3395 Y43.0532 F20.00
G01 X190.3659 Y43.0241 F20.00
G01 X190.3893 Y42.9925 F20.00
G01 X190.4095 Y42.9588 F20.00
G01 X190.4263 Y42.9233 F20.00
G01 X190.4396 Y42.8863 F20.00
G01 X190.4491 Y42.8482 F20.00
G01 X190.4549 Y42.8093 F20.00
G01 X190.4565 Y42.7762 F20.00
G01 X190.4565 Y35.1439 F20.00
G00 Z1.0000
G00 X190.4565 Y35.3939
G01 F6.00
G01 Z-1.8000
G01 F20.00
G01 X190.4565 Y35.1439 F20.00
G01 X190.4549 Y35.1108 F20.00
G01 X190.4491 Y35.0720 F20.00
G01 X190.4396 Y35.0339 F20.00
G01 X190.4263 Y34.9969 F20.00
G01 X190.4095 Y34.9613 F20.00
G01 X190.3893 Y34.9276 F20.00
G01 X190.3772 Y34.9113 F20.00
G01 X190.3893 Y34.9276 F20.00
G01 X190.4095 Y34.9613 F20.00
G01 X190.4263 Y34.9969 F20.00
G01 X190.4396 Y35.0339 F20.00
G01 X190.4491 Y35.0720 F20.00
G01 X190.4549 Y35.1108 F20.00
G01 X190.4565 Y35.1439 F20.00
G00 Z1.0000
M05
G00 Z1.0000
G00 Z1.00
G00 X190.2065 Y35.0


   (Move to maintenance position)
 G21 G90 G53 F200 Z-1
 G21 G90 G17 F200 X181.80142506248126
 G21 G90 G53 F200 Y0 Z-1
				G17
				
  (########## ACTION ##########)
 (Clean the chips)
 M0
 
 
  (########## ACTION ##########)
 (Remove the finished PCB!)
 M0
 
 
